; generated by Slic3r 0.9.9 on 2013-11-26 at 13:36:24

; layer_height = 0.3
; perimeters = 1
; top_solid_layers = 3
; bottom_solid_layers = 3
; fill_density = 0.3
; perimeter_speed = 26
; infill_speed = 50
; travel_speed = 200
; nozzle_diameter = 0.5
; filament_diameter = 1.75
; extrusion_multiplier = 1
; perimeters extrusion width = 0.70mm
; infill extrusion width = 0.50mm
; solid infill extrusion width = 0.70mm
; top infill extrusion width = 0.70mm

G21 ; set units to millimeters
M107
M140 S60 ; set bed tempearture
M104 S195 ; set temperature
M190 S60 ; wait for bed temperature to be reached
M109 S195 ; wait for temperature to be reached
G28 ; home all axes
G90 ; use absolute coordinates
M83 ; use relative distances for extrusion
G1 F18000.000 E-3.10000
G1 Z0.300 F12000.000
G1 X49.540 Y37.529
G1 F18000.000 E3.10000
G1 X49.800 Y37.219 F780.000 E0.03303
G1 X50.090 Y36.929 E0.03348
G1 X50.410 Y36.689 E0.03265
G1 X50.750 Y36.479 E0.03262
G1 X51.110 Y36.299 E0.03286
G1 X51.500 Y36.169 E0.03356
G1 X51.690 Y36.119 E0.01604
G1 X52.290 Y36.039 E0.04941
G1 X87.690 Y36.039 E2.88980
G1 X88.290 Y36.119 E0.04941
G1 X88.480 Y36.169 E0.01604
G1 X88.870 Y36.299 E0.03356
G1 X89.230 Y36.479 E0.03286
G1 X89.570 Y36.689 E0.03262
G1 X89.890 Y36.929 E0.03265
G1 X90.180 Y37.209 E0.03291
G1 X90.550 Y37.689 E0.04947
G1 X108.150 Y68.169 E2.87318
G1 X108.340 Y68.529 E0.03323
G1 X108.480 Y68.909 E0.03306
G1 X108.530 Y69.099 E0.01604
G1 X108.610 Y69.499 E0.03330
G1 X108.640 Y70.099 E0.04904
G1 X108.580 Y70.699 E0.04922
G1 X108.480 Y71.089 E0.03287
G1 X108.340 Y71.469 E0.03306
G1 X108.150 Y71.829 E0.03323
G1 X90.650 Y102.139 E2.85708
G1 X90.550 Y102.309 E0.01610
G1 X90.180 Y102.789 E0.04947
G1 X89.890 Y103.069 E0.03291
G1 X89.400 Y103.419 E0.04916
G1 X88.870 Y103.699 E0.04893
G1 X88.680 Y103.769 E0.01653
G1 X88.290 Y103.879 E0.03308
G1 X87.690 Y103.959 E0.04941
G1 X52.290 Y103.959 E2.88980
G1 X51.690 Y103.879 E0.04941
G1 X51.300 Y103.769 E0.03308
G1 X51.110 Y103.699 E0.01653
G1 X50.580 Y103.419 E0.04893
G1 X50.240 Y103.189 E0.03351
G1 X49.940 Y102.929 E0.03241
G1 X49.540 Y102.469 E0.04976
G1 X49.320 Y102.139 E0.03238
G1 X31.830 Y71.829 E2.85667
G1 X31.650 Y71.469 E0.03286
G1 X31.510 Y71.089 E0.03306
G1 X31.410 Y70.699 E0.03287
G1 X31.360 Y70.299 E0.03291
G1 X31.350 Y69.899 E0.03266
G1 X31.410 Y69.299 E0.04922
G1 X31.510 Y68.909 E0.03287
G1 X31.650 Y68.529 E0.03306
G1 X31.830 Y68.169 E0.03286
G1 X49.320 Y37.859 E2.85667
G1 X49.484 Y37.610 E0.02436
G1 F18000.000 E-3.10000
G1 X53.077 Y42.035 F12000.000
G1 F18000.000 E3.10000
G1 X68.552 Y68.838 F780.000 E2.52650
G1 X68.960 Y68.496 E0.04345
G1 X69.260 Y68.328 E0.02807
G1 X69.724 Y68.177 E0.03985
G1 X54.243 Y41.362 E2.52758
G1 X85.757 Y41.362 E2.57264
G1 X70.276 Y68.177 E2.52760
G1 X70.718 Y68.318 E0.03787
G1 X71.021 Y68.483 E0.02813
G1 X71.287 Y68.700 E0.02808
G1 X71.429 Y68.870 E0.01810
G1 X86.923 Y42.035 E2.52957
G1 X102.680 Y69.327 E2.57264
G1 X71.694 Y69.327 E2.52945
G1 X71.786 Y69.608 E0.02406
G1 X71.828 Y70.000 E0.03224
G1 X71.784 Y70.398 E0.03268
G1 X71.696 Y70.673 E0.02353
G1 X102.680 Y70.673 E2.52928
G1 X86.923 Y97.965 E2.57264
G1 X71.448 Y71.162 E2.52650
G1 X71.040 Y71.504 E0.04345
G1 X70.740 Y71.672 E0.02806
G1 X70.276 Y71.823 E0.03985
G1 X85.757 Y98.638 E2.52759
G1 X54.243 Y98.638 E2.57264
G1 X69.724 Y71.823 E2.52760
G1 X69.282 Y71.682 E0.03787
G1 X68.980 Y71.517 E0.02813
G1 X68.713 Y71.299 E0.02808
G1 X68.571 Y71.130 E0.01810
G1 X53.077 Y97.965 E2.52957
G1 X37.320 Y70.673 E2.57264
G1 X68.306 Y70.673 E2.52945
G1 X68.212 Y70.384 E0.02477
G1 X68.171 Y70.000 E0.03157
G1 X68.213 Y69.610 E0.03196
G1 X68.304 Y69.327 E0.02427
G1 X37.320 Y69.327 E2.52928
G1 X53.028 Y42.120 E2.56462
G1 X53.579 Y41.614 F12000.000
G1 F18000.000 E-3.10000
G1 X87.311 Y40.016 F12000.000
G1 F18000.000 E3.10000
G1 X104.622 Y70.000 F780.000 E2.82630
G1 X87.311 Y99.984 E2.82630
G1 X52.689 Y99.984 E2.82630
G1 X35.378 Y70.000 E2.82630
G1 X52.689 Y40.016 E2.82630
G1 X87.213 Y40.016 E2.81828
G1 F18000.000 E-3.10000
G1 X52.958 Y99.517 F12000.000
G1 F18000.000 E3.10000
G1 X53.422 Y99.517 F600.000 E0.01893
G1 X52.325 Y98.421 E0.06336
G1 X52.819 Y98.452 E0.02023
G1 X51.692 Y97.325 E0.06512
G1 X52.187 Y97.355 E0.02023
G1 X51.060 Y96.228 E0.06512
G1 X51.554 Y96.259 E0.02023
G1 X50.427 Y95.132 E0.06512
G1 X50.921 Y95.163 E0.02023
G1 X49.794 Y94.036 E0.06512
G1 X50.288 Y94.067 E0.02023
G1 X49.161 Y92.940 E0.06512
G1 X49.655 Y92.971 E0.02023
G1 X48.528 Y91.844 E0.06512
G1 X49.022 Y91.875 E0.02023
G1 X47.895 Y90.748 E0.06512
G1 X48.389 Y90.779 E0.02023
G1 X47.262 Y89.652 E0.06512
G1 X47.757 Y89.683 E0.02023
G1 X46.630 Y88.556 E0.06512
G1 X47.124 Y88.587 E0.02023
G1 X45.997 Y87.460 E0.06512
G1 X46.491 Y87.490 E0.02023
G1 X45.364 Y86.363 E0.06512
G1 X45.858 Y86.394 E0.02023
G1 X44.731 Y85.267 E0.06512
G1 X45.225 Y85.298 E0.02023
G1 X44.098 Y84.171 E0.06512
G1 X44.592 Y84.202 E0.02023
G1 X43.465 Y83.075 E0.06512
G1 X43.960 Y83.106 E0.02023
G1 X42.833 Y81.979 E0.06512
G1 X43.327 Y82.010 E0.02023
G1 X42.200 Y80.883 E0.06512
G1 X42.694 Y80.914 E0.02023
G1 X41.567 Y79.787 E0.06512
G1 X42.061 Y79.818 E0.02023
G1 X40.934 Y78.691 E0.06512
G1 X41.428 Y78.722 E0.02023
G1 X40.301 Y77.595 E0.06512
G1 X40.795 Y77.625 E0.02023
G1 X39.668 Y76.498 E0.06512
G1 X40.163 Y76.529 E0.02023
G1 X39.036 Y75.402 E0.06512
G1 X39.530 Y75.433 E0.02023
G1 X38.403 Y74.306 E0.06512
G1 X38.897 Y74.337 E0.02023
G1 X37.770 Y73.210 E0.06512
G1 X38.264 Y73.241 E0.02023
G1 X37.137 Y72.114 E0.06512
G1 X37.631 Y72.145 E0.02023
G1 X36.504 Y71.018 E0.06512
G1 X36.998 Y71.049 E0.02023
G1 X35.929 Y69.979 E0.06181
G1 X36.098 Y69.685 E0.01386
G1 X36.619 Y70.206 E0.03010
G1 X36.670 Y69.794 E0.01698
G1 X37.082 Y70.206 E0.02384
G1 X37.133 Y69.794 E0.01698
G1 X37.546 Y70.206 E0.02384
G1 X37.596 Y69.794 E0.01698
G1 X38.009 Y70.206 E0.02384
G1 X38.060 Y69.794 E0.01698
G1 X38.472 Y70.206 E0.02384
G1 X38.523 Y69.794 E0.01698
G1 X38.936 Y70.206 E0.02384
G1 X38.986 Y69.794 E0.01698
G1 X39.399 Y70.206 E0.02384
G1 X39.450 Y69.794 E0.01698
G1 X39.862 Y70.206 E0.02384
G1 X39.913 Y69.794 E0.01698
G1 X40.325 Y70.206 E0.02384
G1 X40.376 Y69.794 E0.01698
G1 X40.789 Y70.206 E0.02384
G1 X40.839 Y69.794 E0.01698
G1 X41.252 Y70.206 E0.02384
G1 X41.303 Y69.794 E0.01698
G1 X41.715 Y70.206 E0.02384
G1 X41.766 Y69.794 E0.01698
G1 X42.178 Y70.206 E0.02384
G1 X42.229 Y69.794 E0.01698
G1 X42.642 Y70.206 E0.02384
G1 X42.692 Y69.794 E0.01698
G1 X43.105 Y70.206 E0.02384
G1 X43.156 Y69.794 E0.01698
G1 X43.568 Y70.206 E0.02384
G1 X43.619 Y69.794 E0.01698
G1 X44.032 Y70.206 E0.02384
G1 X44.082 Y69.794 E0.01698
G1 X44.495 Y70.206 E0.02384
G1 X44.546 Y69.794 E0.01698
G1 X44.958 Y70.206 E0.02384
G1 X45.009 Y69.794 E0.01698
G1 X45.421 Y70.206 E0.02384
G1 X45.472 Y69.794 E0.01698
G1 X45.885 Y70.206 E0.02384
G1 X45.935 Y69.794 E0.01698
G1 X46.348 Y70.206 E0.02384
G1 X46.399 Y69.794 E0.01698
G1 X46.811 Y70.206 E0.02384
G1 X46.862 Y69.794 E0.01698
G1 X47.274 Y70.206 E0.02384
G1 X47.325 Y69.794 E0.01698
G1 X47.738 Y70.206 E0.02384
G1 X47.788 Y69.794 E0.01698
G1 X48.201 Y70.206 E0.02384
G1 X48.252 Y69.794 E0.01698
G1 X48.664 Y70.206 E0.02384
G1 X48.715 Y69.794 E0.01698
G1 X49.127 Y70.206 E0.02384
G1 X49.178 Y69.794 E0.01698
G1 X49.591 Y70.206 E0.02384
G1 X49.642 Y69.794 E0.01698
G1 X50.054 Y70.206 E0.02384
G1 X50.105 Y69.794 E0.01698
G1 X50.517 Y70.206 E0.02384
G1 X50.568 Y69.794 E0.01698
G1 X50.981 Y70.206 E0.02384
G1 X51.031 Y69.794 E0.01698
G1 X51.444 Y70.206 E0.02384
G1 X51.495 Y69.794 E0.01698
G1 X51.907 Y70.206 E0.02384
G1 X51.958 Y69.794 E0.01698
G1 X52.370 Y70.206 E0.02384
G1 X52.421 Y69.794 E0.01698
G1 X52.834 Y70.206 E0.02384
G1 X52.884 Y69.794 E0.01698
G1 X53.297 Y70.206 E0.02384
G1 X53.348 Y69.794 E0.01698
G1 X53.760 Y70.206 E0.02384
G1 X53.811 Y69.794 E0.01698
G1 X54.223 Y70.206 E0.02384
G1 X54.274 Y69.794 E0.01698
G1 X54.687 Y70.206 E0.02384
G1 X54.738 Y69.794 E0.01698
G1 X55.150 Y70.206 E0.02384
G1 X55.201 Y69.794 E0.01698
G1 X55.613 Y70.206 E0.02384
G1 X55.664 Y69.794 E0.01698
G1 X56.077 Y70.206 E0.02384
G1 X56.127 Y69.794 E0.01698
G1 X56.540 Y70.206 E0.02384
G1 X56.591 Y69.794 E0.01698
G1 X57.003 Y70.206 E0.02384
G1 X57.054 Y69.794 E0.01698
G1 X57.466 Y70.206 E0.02384
G1 X57.517 Y69.794 E0.01698
G1 X57.930 Y70.206 E0.02384
G1 X57.980 Y69.794 E0.01698
G1 X58.393 Y70.206 E0.02384
G1 X58.444 Y69.794 E0.01698
G1 X58.856 Y70.206 E0.02384
G1 X58.907 Y69.794 E0.01698
G1 X59.319 Y70.206 E0.02384
G1 X59.370 Y69.794 E0.01698
G1 X59.783 Y70.206 E0.02384
G1 X59.834 Y69.794 E0.01698
G1 X60.246 Y70.206 E0.02384
G1 X60.297 Y69.794 E0.01698
G1 X60.709 Y70.206 E0.02384
G1 X60.760 Y69.794 E0.01698
G1 X61.173 Y70.206 E0.02384
G1 X61.223 Y69.794 E0.01698
G1 X61.636 Y70.206 E0.02384
G1 X61.687 Y69.794 E0.01698
G1 X62.099 Y70.206 E0.02384
G1 X62.150 Y69.794 E0.01698
G1 X62.562 Y70.206 E0.02384
G1 X62.613 Y69.794 E0.01698
G1 X63.026 Y70.206 E0.02384
G1 X63.076 Y69.794 E0.01698
G1 X63.489 Y70.206 E0.02384
G1 X63.540 Y69.794 E0.01698
G1 X63.952 Y70.206 E0.02384
G1 X64.003 Y69.794 E0.01698
G1 X64.415 Y70.206 E0.02384
G1 X64.466 Y69.794 E0.01698
G1 X64.879 Y70.206 E0.02384
G1 X64.930 Y69.794 E0.01698
G1 X65.342 Y70.206 E0.02384
G1 X65.393 Y69.794 E0.01698
G1 X65.805 Y70.206 E0.02384
G1 X65.856 Y69.794 E0.01698
G1 X66.269 Y70.206 E0.02384
G1 X66.319 Y69.794 E0.01698
G1 X66.732 Y70.206 E0.02384
G1 X66.783 Y69.794 E0.01698
G1 X67.195 Y70.206 E0.02384
G1 X67.246 Y69.794 E0.01698
G1 X67.658 Y70.206 E0.02384
G1 X67.723 Y69.807 E0.01652
G1 X67.709 Y69.794 E0.00077
G1 F18000.000 E-3.10000
G1 X53.448 Y99.081 F12000.000
G1 F18000.000 E3.10000
G1 X53.146 Y98.779 F600.000 E0.01745
G1 X53.316 Y98.485 E0.01386
G1 X53.618 Y98.787 E0.01745
G1 X53.788 Y98.493 E0.01386
G1 X53.486 Y98.191 E0.01745
G1 X53.655 Y97.898 E0.01386
G1 X53.957 Y98.200 E0.01745
G1 X54.127 Y97.906 E0.01386
G1 X53.825 Y97.604 E0.01745
G1 X53.994 Y97.310 E0.01386
G1 X54.296 Y97.612 E0.01745
G1 X54.466 Y97.318 E0.01386
G1 X54.164 Y97.016 E0.01745
G1 X54.333 Y96.723 E0.01386
G1 X54.635 Y97.025 E0.01745
G1 X54.805 Y96.731 E0.01386
G1 X54.503 Y96.429 E0.01745
G1 X54.673 Y96.135 E0.01386
G1 X54.975 Y96.437 E0.01745
G1 X55.144 Y96.144 E0.01386
G1 X54.842 Y95.842 E0.01745
G1 X55.012 Y95.548 E0.01386
G1 X55.314 Y95.850 E0.01745
G1 X55.483 Y95.556 E0.01386
G1 X55.181 Y95.254 E0.01745
G1 X55.351 Y94.961 E0.01386
G1 X55.653 Y95.262 E0.01745
G1 X55.822 Y94.969 E0.01386
G1 X55.520 Y94.667 E0.01745
G1 X55.690 Y94.373 E0.01386
G1 X55.992 Y94.675 E0.01745
G1 X56.162 Y94.381 E0.01386
G1 X55.860 Y94.079 E0.01745
G1 X56.029 Y93.786 E0.01386
G1 X56.331 Y94.088 E0.01745
G1 X56.501 Y93.794 E0.01386
G1 X56.199 Y93.492 E0.01745
G1 X56.368 Y93.198 E0.01386
G1 X56.670 Y93.500 E0.01745
G1 X56.840 Y93.207 E0.01386
G1 X56.538 Y92.905 E0.01745
G1 X56.707 Y92.611 E0.01386
G1 X57.009 Y92.913 E0.01745
G1 X57.179 Y92.619 E0.01386
G1 X56.877 Y92.317 E0.01745
G1 X57.047 Y92.023 E0.01386
G1 X57.349 Y92.325 E0.01745
G1 X57.518 Y92.032 E0.01386
G1 X57.216 Y91.730 E0.01745
G1 X57.386 Y91.436 E0.01386
G1 X57.688 Y91.738 E0.01745
G1 X57.857 Y91.444 E0.01386
G1 X57.555 Y91.142 E0.01745
G1 X57.725 Y90.849 E0.01386
G1 X58.027 Y91.151 E0.01745
G1 X58.196 Y90.857 E0.01386
G1 X57.894 Y90.555 E0.01745
G1 X58.064 Y90.261 E0.01386
G1 X58.366 Y90.563 E0.01745
G1 X58.536 Y90.270 E0.01386
G1 X58.234 Y89.968 E0.01745
G1 X58.403 Y89.674 E0.01386
G1 X58.705 Y89.976 E0.01745
G1 X58.875 Y89.682 E0.01386
G1 X58.573 Y89.380 E0.01745
G1 X58.742 Y89.086 E0.01386
G1 X59.044 Y89.388 E0.01745
G1 X59.214 Y89.095 E0.01386
G1 X58.912 Y88.793 E0.01745
G1 X59.081 Y88.499 E0.01386
G1 X59.383 Y88.801 E0.01745
G1 X59.553 Y88.507 E0.01386
G1 X59.251 Y88.205 E0.01745
G1 X59.421 Y87.912 E0.01386
G1 X59.723 Y88.214 E0.01745
G1 X59.892 Y87.920 E0.01386
G1 X59.590 Y87.618 E0.01745
G1 X59.760 Y87.324 E0.01386
G1 X60.062 Y87.626 E0.01745
G1 X60.231 Y87.333 E0.01386
G1 X59.929 Y87.031 E0.01745
G1 X60.099 Y86.737 E0.01386
G1 X60.401 Y87.039 E0.01745
G1 X60.570 Y86.745 E0.01386
G1 X60.268 Y86.443 E0.01745
G1 X60.438 Y86.149 E0.01386
G1 X60.740 Y86.451 E0.01745
G1 X60.910 Y86.158 E0.01386
G1 X60.608 Y85.856 E0.01745
G1 X60.777 Y85.562 E0.01386
G1 X61.079 Y85.864 E0.01745
G1 X61.249 Y85.570 E0.01386
G1 X60.947 Y85.268 E0.01745
G1 X61.116 Y84.975 E0.01386
G1 X61.418 Y85.277 E0.01745
G1 X61.588 Y84.983 E0.01386
G1 X61.286 Y84.681 E0.01745
G1 X61.455 Y84.387 E0.01386
G1 X61.757 Y84.689 E0.01745
G1 X61.927 Y84.395 E0.01386
G1 X61.625 Y84.094 E0.01745
G1 X61.795 Y83.800 E0.01386
G1 X62.096 Y84.102 E0.01745
G1 X62.266 Y83.808 E0.01386
G1 X61.964 Y83.506 E0.01745
G1 X62.134 Y83.212 E0.01386
G1 X62.436 Y83.514 E0.01745
G1 X62.605 Y83.221 E0.01386
G1 X62.303 Y82.919 E0.01745
G1 X62.473 Y82.625 E0.01386
G1 X62.775 Y82.927 E0.01745
G1 X62.944 Y82.633 E0.01386
G1 X62.642 Y82.331 E0.01745
G1 X62.812 Y82.038 E0.01386
G1 X63.114 Y82.340 E0.01745
G1 X63.283 Y82.046 E0.01386
G1 X62.981 Y81.744 E0.01745
G1 X63.151 Y81.450 E0.01386
G1 X63.453 Y81.752 E0.01745
G1 X63.623 Y81.458 E0.01386
G1 X63.321 Y81.156 E0.01745
G1 X63.490 Y80.863 E0.01386
G1 X63.792 Y81.165 E0.01745
G1 X63.962 Y80.871 E0.01386
G1 X63.660 Y80.569 E0.01745
G1 X63.829 Y80.275 E0.01386
G1 X64.131 Y80.577 E0.01745
G1 X64.301 Y80.284 E0.01386
G1 X63.999 Y79.982 E0.01745
G1 X64.168 Y79.688 E0.01386
G1 X64.470 Y79.990 E0.01745
G1 X64.640 Y79.696 E0.01386
G1 X64.338 Y79.394 E0.01745
G1 X64.508 Y79.101 E0.01386
G1 X64.810 Y79.403 E0.01745
G1 X64.979 Y79.109 E0.01386
G1 X64.677 Y78.807 E0.01745
G1 X64.847 Y78.513 E0.01386
G1 X65.149 Y78.815 E0.01745
G1 X65.318 Y78.521 E0.01386
G1 X65.016 Y78.219 E0.01745
G1 X65.186 Y77.926 E0.01386
G1 X65.488 Y78.228 E0.01745
G1 X65.657 Y77.934 E0.01386
G1 X65.355 Y77.632 E0.01745
G1 X65.525 Y77.338 E0.01386
G1 X65.827 Y77.640 E0.01745
G1 X65.997 Y77.347 E0.01386
G1 X65.695 Y77.045 E0.01745
G1 X65.864 Y76.751 E0.01386
G1 X66.166 Y77.053 E0.01745
G1 X66.336 Y76.759 E0.01386
G1 X66.034 Y76.457 E0.01745
G1 X66.203 Y76.164 E0.01386
G1 X66.505 Y76.466 E0.01745
G1 X66.675 Y76.172 E0.01386
G1 X66.373 Y75.870 E0.01745
G1 X66.542 Y75.576 E0.01386
G1 X66.844 Y75.878 E0.01745
G1 X67.014 Y75.584 E0.01386
G1 X66.712 Y75.282 E0.01745
G1 X66.882 Y74.989 E0.01386
G1 X67.184 Y75.291 E0.01745
G1 X67.353 Y74.997 E0.01386
G1 X67.051 Y74.695 E0.01745
G1 X67.221 Y74.401 E0.01386
G1 X67.523 Y74.703 E0.01745
G1 X67.692 Y74.410 E0.01386
G1 X67.390 Y74.108 E0.01745
G1 X67.560 Y73.814 E0.01386
G1 X67.862 Y74.116 E0.01745
G1 X68.031 Y73.822 E0.01386
G1 X67.729 Y73.520 E0.01745
G1 X67.899 Y73.226 E0.01386
G1 X68.201 Y73.528 E0.01745
G1 X68.371 Y73.235 E0.01386
G1 X68.069 Y72.933 E0.01745
G1 X68.238 Y72.639 E0.01386
G1 X68.540 Y72.941 E0.01745
G1 X68.710 Y72.647 E0.01386
G1 X68.408 Y72.345 E0.01745
G1 X68.577 Y72.052 E0.01386
G1 X68.879 Y72.354 E0.01745
G1 F18000.000 E-3.10000
G1 X71.235 Y71.930 F12000.000
G1 F18000.000 E3.10000
G1 X71.513 Y72.207 F600.000 E0.01605
G1 X71.018 Y72.176 E0.02023
G1 X72.145 Y73.303 E0.06512
G1 X71.651 Y73.273 E0.02023
G1 X72.778 Y74.400 E0.06512
G1 X72.284 Y74.369 E0.02023
G1 X73.411 Y75.496 E0.06512
G1 X72.917 Y75.465 E0.02023
G1 X74.044 Y76.592 E0.06512
G1 X73.550 Y76.561 E0.02023
G1 X74.677 Y77.688 E0.06512
G1 X74.183 Y77.657 E0.02023
G1 X75.310 Y78.784 E0.06512
G1 X74.815 Y78.753 E0.02023
G1 X75.942 Y79.880 E0.06512
G1 X75.448 Y79.849 E0.02023
G1 X76.575 Y80.976 E0.06512
G1 X76.081 Y80.945 E0.02023
G1 X77.208 Y82.072 E0.06512
G1 X76.714 Y82.041 E0.02023
G1 X77.841 Y83.169 E0.06512
G1 X77.347 Y83.138 E0.02023
G1 X78.474 Y84.265 E0.06512
G1 X77.980 Y84.234 E0.02023
G1 X79.107 Y85.361 E0.06512
G1 X78.613 Y85.330 E0.02023
G1 X79.740 Y86.457 E0.06512
G1 X79.245 Y86.426 E0.02023
G1 X80.372 Y87.553 E0.06512
G1 X79.878 Y87.522 E0.02023
G1 X81.005 Y88.649 E0.06512
G1 X80.511 Y88.618 E0.02023
G1 X81.638 Y89.745 E0.06512
G1 X81.144 Y89.714 E0.02023
G1 X82.271 Y90.841 E0.06512
G1 X81.777 Y90.810 E0.02023
G1 X82.904 Y91.937 E0.06512
G1 X82.410 Y91.907 E0.02023
G1 X83.537 Y93.034 E0.06512
G1 X83.042 Y93.003 E0.02023
G1 X84.169 Y94.130 E0.06512
G1 X83.675 Y94.099 E0.02023
G1 X84.802 Y95.226 E0.06512
G1 X84.308 Y95.195 E0.02023
G1 X85.435 Y96.322 E0.06512
