; generated by Slic3r 0.9.9 on 2013-11-26 at 12:29:52

; layer_height = 0.3
; perimeters = 1
; top_solid_layers = 3
; bottom_solid_layers = 3
; fill_density = 0.3
; perimeter_speed = 26
; infill_speed = 50
; travel_speed = 200
; nozzle_diameter = 0.5
; filament_diameter = 1.75
; extrusion_multiplier = 1
; perimeters extrusion width = 0.70mm
; infill extrusion width = 0.50mm
; solid infill extrusion width = 0.70mm
; top infill extrusion width = 0.70mm

G21 ; set units to millimeters
M107
M140 S60 ; set bed tempearture
M104 S195 ; set temperature
M190 S60 ; wait for bed temperature to be reached
M109 S195 ; wait for temperature to be reached
G28 ; home all axes
G90 ; use absolute coordinates
M83 ; use relative distances for extrusion
G1 F18000.000 E-3.10000
G1 Z0.300 F12000.000
G1 X49.560 Y39.489
G1 F18000.000 E3.10000
G1 X49.990 Y39.009 F780.000 E0.05261
G1 X50.320 Y38.739 E0.03481
G1 X50.680 Y38.499 E0.03532
G1 X52.420 Y37.509 E0.16342
G1 X52.630 Y37.399 E0.01935
G1 X53.070 Y37.219 E0.03881
G1 X53.530 Y37.099 E0.03881
G1 X53.990 Y37.039 E0.03787
G1 X86.000 Y37.039 E2.61306
G1 X86.460 Y37.099 E0.03787
G1 X86.920 Y37.219 E0.03881
G1 X87.360 Y37.399 E0.03881
G1 X89.310 Y38.499 E0.18276
G1 X89.670 Y38.739 E0.03532
G1 X90.000 Y39.009 E0.03481
G1 X90.430 Y39.489 E0.05261
G1 X90.670 Y39.849 E0.03532
G1 X106.530 Y67.359 E2.59219
G1 X106.620 Y67.549 E0.01716
G1 X106.760 Y67.949 E0.03460
G1 X106.820 Y68.159 E0.01783
G1 X106.890 Y68.579 E0.03476
G1 X106.910 Y68.789 E0.01722
G1 X106.910 Y71.209 E0.19755
G1 X106.860 Y71.629 E0.03453
G1 X106.760 Y72.049 E0.03524
G1 X106.620 Y72.449 E0.03460
G1 X106.430 Y72.829 E0.03468
G1 X90.670 Y100.139 E2.57397
G1 X90.430 Y100.489 E0.03464
G1 X90.160 Y100.819 E0.03481
G1 X89.850 Y101.109 E0.03465
G1 X89.500 Y101.369 E0.03559
G1 X87.580 Y102.479 E0.18104
G1 X87.150 Y102.689 E0.03906
G1 X86.700 Y102.839 E0.03872
G1 X86.000 Y102.959 E0.05798
G1 X53.990 Y102.959 E2.61306
G1 X53.290 Y102.839 E0.05798
G1 X52.840 Y102.689 E0.03872
G1 X52.410 Y102.479 E0.03906
G1 X50.670 Y101.479 E0.16383
G1 X50.310 Y101.239 E0.03532
G1 X49.980 Y100.969 E0.03481
G1 X49.690 Y100.659 E0.03465
G1 X49.320 Y100.139 E0.05210
G1 X33.460 Y72.639 E2.59149
G1 X33.370 Y72.449 E0.01716
G1 X33.230 Y72.049 E0.03460
G1 X33.170 Y71.839 E0.01783
G1 X33.100 Y71.419 E0.03476
G1 X33.080 Y71.209 E0.01722
G1 X33.080 Y68.789 E0.19755
G1 X33.130 Y68.369 E0.03453
G1 X33.230 Y67.949 E0.03524
G1 X33.370 Y67.549 E0.03460
G1 X33.560 Y67.169 E0.03468
G1 X49.320 Y39.849 E2.57468
G1 X49.506 Y39.571 E0.02731
G1 F18000.000 E-3.10000
G1 X85.201 Y98.984 F12000.000
G1 F18000.000 E3.10000
G1 X54.799 Y98.984 F780.000 E2.48182
G1 X70.000 Y72.654 E2.48182
G1 X85.152 Y98.899 E2.47380
G1 F18000.000 E-3.10000
G1 X52.500 Y96.347 F12000.000
G1 F18000.000 E3.10000
G1 X38.432 Y71.982 F780.000 E2.29674
G1 X66.568 Y71.982 E2.29674
G1 X52.549 Y96.262 E2.28872
G1 X52.192 Y97.123 F12000.000
G1 X37.299 Y71.327 F780.000 E2.43155
G1 X67.701 Y71.327 E2.48182
G1 X52.500 Y97.656 E2.48182
G1 X52.241 Y97.208 E0.04225
G1 X52.519 Y96.556 F12000.000
G1 F18000.000 E-3.10000
G1 X52.500 Y43.653 F12000.000
G1 F18000.000 E3.10000
G1 X66.568 Y68.018 F780.000 E2.29674
G1 X38.432 Y68.018 E2.29674
G1 X52.451 Y43.738 E2.28872
G1 X52.500 Y42.344 F12000.000
G1 X67.701 Y68.673 F780.000 E2.48182
G1 X37.299 Y68.673 E2.48182
G1 X52.451 Y42.429 E2.47380
G1 X52.614 Y42.988 F12000.000
G1 F18000.000 E-3.10000
G1 X55.932 Y41.671 F12000.000
G1 F18000.000 E3.10000
G1 X84.068 Y41.671 F780.000 E2.29674
G1 X70.000 Y66.037 E2.29674
G1 X55.982 Y41.756 E2.28872
G1 X54.799 Y41.016 F12000.000
G1 X85.201 Y41.016 F780.000 E2.48182
G1 X70.000 Y67.345 E2.48182
G1 X54.848 Y41.101 E2.47380
G1 X55.414 Y41.240 F12000.000
G1 F18000.000 E-3.10000
G1 X87.500 Y43.653 F12000.000
G1 F18000.000 E3.10000
G1 X101.568 Y68.018 F780.000 E2.29674
G1 X73.432 Y68.018 E2.29674
G1 X87.451 Y43.738 E2.28872
G1 X87.500 Y42.344 F12000.000
G1 X102.701 Y68.673 F780.000 E2.48182
G1 X72.299 Y68.673 E2.48182
G1 X87.451 Y42.429 E2.47380
G1 X87.614 Y42.988 F12000.000
G1 F18000.000 E-3.10000
G1 X73.432 Y71.982 F12000.000
G1 F18000.000 E3.10000
G1 X101.568 Y71.982 F780.000 E2.29674
G1 X87.500 Y96.347 E2.29674
G1 X73.482 Y72.067 E2.28872
G1 X73.198 Y72.885 F12000.000
G1 X72.299 Y71.327 F780.000 E0.14681
G1 X102.701 Y71.327 E2.48182
G1 X87.500 Y97.656 E2.48182
G1 X73.247 Y72.970 E2.32700
G1 X73.525 Y72.318 F12000.000
G1 F18000.000 E-3.10000
G1 X70.000 Y73.603 F12000.000
G1 F18000.000 E3.10000
G1 X71.278 Y75.817 F1200.000 E0.21083
G1 X69.658 Y74.196 E0.18904
G1 X69.315 Y74.789 E0.05649
G1 X72.556 Y78.030 E0.37804
G1 X73.833 Y80.243 E0.21081
G1 X68.973 Y75.382 E0.56705
G1 X68.630 Y75.975 E0.05649
G1 X75.111 Y82.456 E0.75605
G1 X76.389 Y84.669 E0.21081
G1 X68.288 Y76.568 E0.94505
G1 X67.946 Y77.161 E0.05649
G1 X77.667 Y86.882 E1.13406
G1 X78.944 Y89.095 E0.21081
G1 X67.603 Y77.754 E1.32306
G1 X67.261 Y78.347 E0.05649
G1 X80.222 Y91.308 E1.51206
G1 X81.500 Y93.521 E0.21081
G1 X66.919 Y78.940 E1.70107
G1 X66.576 Y79.533 E0.05649
G1 X82.777 Y95.734 E1.89007
G1 X84.055 Y97.948 E0.21081
G1 X66.234 Y80.126 E2.07908
G1 X65.892 Y80.719 E0.05649
G1 X83.682 Y98.509 E2.07543
G1 X82.746 Y98.509 E0.07716
G1 X65.549 Y81.312 E2.00625
G1 X65.207 Y81.905 E0.05649
G1 X81.811 Y98.509 E1.93707
G1 X80.875 Y98.509 E0.07716
G1 X64.864 Y82.498 E1.86789
G1 X64.522 Y83.091 E0.05649
G1 X79.940 Y98.509 E1.79871
G1 X79.005 Y98.509 E0.07716
G1 X64.180 Y83.684 E1.72953
G1 X63.837 Y84.277 E0.05649
G1 X78.069 Y98.509 E1.66035
G1 X77.134 Y98.509 E0.07716
G1 X63.495 Y84.870 E1.59116
G1 X63.153 Y85.463 E0.05649
G1 X76.199 Y98.509 E1.52198
G1 X75.263 Y98.509 E0.07716
G1 X62.810 Y86.056 E1.45280
G1 X62.468 Y86.649 E0.05649
G1 X74.328 Y98.509 E1.38362
G1 X73.393 Y98.509 E0.07716
G1 X62.126 Y87.242 E1.31444
G1 X61.783 Y87.835 E0.05649
G1 X72.457 Y98.509 E1.24526
G1 X71.522 Y98.509 E0.07716
G1 X61.441 Y88.428 E1.17608
G1 X61.098 Y89.021 E0.05649
G1 X70.587 Y98.509 E1.10690
G1 X69.651 Y98.509 E0.07716
G1 X60.756 Y89.614 E1.03772
G1 X60.414 Y90.207 E0.05649
G1 X68.716 Y98.509 E0.96854
G1 X67.780 Y98.509 E0.07716
G1 X60.071 Y90.800 E0.89936
G1 X59.729 Y91.393 E0.05649
G1 X66.845 Y98.509 E0.83018
G1 X65.910 Y98.509 E0.07716
G1 X59.387 Y91.986 E0.76100
G1 X59.044 Y92.579 E0.05649
G1 X64.974 Y98.509 E0.69182
G1 X64.039 Y98.509 E0.07716
G1 X58.702 Y93.172 E0.62264
G1 X58.360 Y93.765 E0.05649
G1 X63.104 Y98.509 E0.55346
G1 X62.168 Y98.509 E0.07716
G1 X58.017 Y94.358 E0.48428
G1 X57.675 Y94.951 E0.05649
G1 X61.233 Y98.509 E0.41510
G1 X60.298 Y98.509 E0.07716
G1 X57.332 Y95.544 E0.34592
G1 X56.990 Y96.137 E0.05649
G1 X59.362 Y98.509 E0.27674
G1 X58.427 Y98.509 E0.07716
G1 X56.648 Y96.730 E0.20756
G1 X56.305 Y97.323 E0.05649
G1 X57.492 Y98.509 E0.13838
G1 X56.556 Y98.509 E0.07716
G1 X55.963 Y97.916 E0.06920
G1 X55.621 Y98.509 E0.05649
G1 F18000.000 E-3.10000
G1 X52.500 Y95.398 F12000.000
G1 F18000.000 E3.10000
G1 X52.840 Y94.810 F1200.000 E0.05559
G1 X51.232 Y93.203 E0.18604
G1 X53.179 Y94.222 E0.17985
G1 X49.965 Y91.007 E0.37204
G1 X48.697 Y88.812 E0.20746
G1 X53.519 Y93.634 E0.55804
G1 X53.859 Y93.045 E0.05559
G1 X47.430 Y86.616 E0.74404
G1 X46.162 Y84.421 E0.20746
G1 X54.198 Y92.457 E0.93004
G1 X54.538 Y91.869 E0.05559
G1 X44.895 Y82.226 E1.11604
G1 X43.627 Y80.030 E0.20746
G1 X54.877 Y91.281 E1.30204
G1 X55.217 Y90.692 E0.05559
G1 X42.360 Y77.835 E1.48804
G1 X41.092 Y75.639 E0.20746
G1 X55.557 Y90.104 E1.67404
G1 X55.896 Y89.516 E0.05559
G1 X39.824 Y73.444 E1.86004
G1 X39.765 Y72.456 E0.08098
G1 X56.236 Y88.928 E1.90628
G1 X56.576 Y88.339 E0.05559
G1 X40.692 Y72.456 E1.83820
G1 X41.620 Y72.456 E0.07593
G1 X56.915 Y87.751 E1.77012
G1 X57.255 Y87.163 E0.05559
G1 X42.548 Y72.456 E1.70203
G1 X43.476 Y72.456 E0.07593
G1 X57.595 Y86.575 E1.63395
G1 X57.934 Y85.986 E0.05559
G1 X44.404 Y72.456 E1.56587
G1 X45.332 Y72.456 E0.07593
G1 X58.274 Y85.398 E1.49779
G1 X58.613 Y84.810 E0.05559
G1 X46.260 Y72.456 E1.42971
G1 X47.188 Y72.456 E0.07593
G1 X58.953 Y84.222 E1.36163
G1 X59.293 Y83.633 E0.05559
G1 X48.116 Y72.456 E1.29355
G1 X49.043 Y72.456 E0.07593
G1 X59.632 Y83.045 E1.22547
G1 X59.972 Y82.457 E0.05559
G1 X49.971 Y72.456 E1.15739
G1 X50.899 Y72.456 E0.07593
G1 X60.312 Y81.868 E1.08931
G1 X60.651 Y81.280 E0.05559
G1 X51.827 Y72.456 E1.02123
G1 X52.755 Y72.456 E0.07593
G1 X60.991 Y80.692 E0.95315
G1 X61.331 Y80.104 E0.05559
G1 X53.683 Y72.456 E0.88507
G1 X54.611 Y72.456 E0.07593
G1 X61.670 Y79.515 E0.81699
G1 X62.010 Y78.927 E0.05559
G1 X55.539 Y72.456 E0.74891
G1 X56.467 Y72.456 E0.07593
G1 X62.349 Y78.339 E0.68082
G1 X62.689 Y77.751 E0.05559
G1 X57.395 Y72.456 E0.61274
G1 X58.322 Y72.456 E0.07593
G1 X63.029 Y77.162 E0.54466
G1 X63.368 Y76.574 E0.05559
G1 X59.250 Y72.456 E0.47658
G1 X60.178 Y72.456 E0.07593
G1 X63.708 Y75.986 E0.40850
G1 X64.048 Y75.398 E0.05559
G1 X61.106 Y72.456 E0.34042
G1 X62.034 Y72.456 E0.07593
G1 X64.387 Y74.809 E0.27234
G1 X64.727 Y74.221 E0.05559
G1 X62.962 Y72.456 E0.20426
G1 X63.890 Y72.456 E0.07593
G1 X65.066 Y73.633 E0.13618
G1 X65.406 Y73.045 E0.05559
G1 X64.818 Y72.456 E0.06810
G1 X65.746 Y72.456 E0.07595
G1 F18000.000 E-3.10000
G1 X39.254 Y67.544 F12000.000
G1 F18000.000 E3.10000
G1 X39.594 Y66.955 F1200.000 E0.05559
G1 X40.182 Y67.544 E0.06810
G1 X41.110 Y67.544 E0.07593
G1 X39.934 Y66.367 E0.13618
G1 X40.273 Y65.779 E0.05559
G1 X42.038 Y67.544 E0.20426
G1 X42.966 Y67.544 E0.07593
G1 X40.613 Y65.191 E0.27234
G1 X40.952 Y64.602 E0.05559
G1 X43.894 Y67.544 E0.34042
G1 X44.822 Y67.544 E0.07593
G1 X41.292 Y64.014 E0.40850
G1 X41.632 Y63.426 E0.05559
G1 X45.750 Y67.544 E0.47658
G1 X46.678 Y67.544 E0.07593
G1 X41.971 Y62.838 E0.54467
G1 X42.311 Y62.249 E0.05559
G1 X47.605 Y67.544 E0.61275
G1 X48.533 Y67.544 E0.07593
G1 X42.651 Y61.661 E0.68083
G1 X42.990 Y61.073 E0.05559
G1 X49.461 Y67.544 E0.74891
G1 X50.389 Y67.544 E0.07593
G1 X43.330 Y60.485 E0.81699
G1 X43.669 Y59.896 E0.05559
G1 X51.317 Y67.544 E0.88507
G1 X52.245 Y67.544 E0.07593
G1 X44.009 Y59.308 E0.95315
G1 X44.349 Y58.720 E0.05559
G1 X53.173 Y67.544 E1.02123
G1 X54.101 Y67.544 E0.07593
G1 X44.688 Y58.132 E1.08931
G1 X45.028 Y57.543 E0.05559
G1 X55.029 Y67.544 E1.15739
G1 X55.957 Y67.544 E0.07593
G1 X45.368 Y56.955 E1.22547
G1 X45.707 Y56.367 E0.05559
G1 X56.884 Y67.544 E1.29355
G1 X57.812 Y67.544 E0.07593
G1 X46.047 Y55.778 E1.36163
G1 X46.387 Y55.190 E0.05559
G1 X58.740 Y67.544 E1.42971
G1 X59.668 Y67.544 E0.07593
G1 X46.726 Y54.602 E1.49779
G1 X47.066 Y54.014 E0.05559
G1 X60.596 Y67.544 E1.56588
G1 X61.524 Y67.544 E0.07593
G1 X47.405 Y53.425 E1.63396
G1 X47.745 Y52.837 E0.05559
G1 X62.452 Y67.544 E1.70204
G1 X63.380 Y67.544 E0.07593
G1 X48.085 Y52.249 E1.77012
G1 X48.424 Y51.661 E0.05559
G1 X64.308 Y67.544 E1.83820
G1 X65.235 Y67.544 E0.07593
G1 X48.764 Y51.072 E1.90628
G1 X49.104 Y50.484 E0.05559
G1 X65.176 Y66.556 E1.86003
G1 X63.908 Y64.361 E0.20746
G1 X49.443 Y49.896 E1.67403
G1 X49.783 Y49.308 E0.05559
G1 X62.640 Y62.165 E1.48803
G1 X61.373 Y59.970 E0.20746
G1 X50.122 Y48.719 E1.30203
G1 X50.462 Y48.131 E0.05559
G1 X60.105 Y57.774 E1.11603
G1 X58.838 Y55.579 E0.20746
G1 X50.802 Y47.543 E0.93003
G1 X51.141 Y46.955 E0.05559
G1 X57.570 Y53.383 E0.74403
G1 X56.303 Y51.188 E0.20746
G1 X51.481 Y46.366 E0.55803
G1 X51.821 Y45.778 E0.05559
G1 X55.035 Y48.993 E0.37203
G1 X53.768 Y46.797 E0.20746
G1 X52.160 Y45.190 E0.18604
G1 X52.500 Y44.602 E0.05559
G1 F18000.000 E-3.10000
G1 X70.000 Y65.088 F12000.000
G1 F18000.000 E3.10000
G1 X70.340 Y64.499 F1200.000 E0.05559
G1 X68.732 Y62.892 E0.18604
G1 X70.679 Y63.911 E0.17985
G1 X67.465 Y60.696 E0.37204
G1 X66.197 Y58.501 E0.20746
G1 X71.019 Y63.323 E0.55804
G1 X71.359 Y62.735 E0.05559
G1 X64.930 Y56.306 E0.74404
G1 X63.662 Y54.110 E0.20746
G1 X71.698 Y62.146 E0.93004
G1 X72.038 Y61.558 E0.05559
G1 X62.395 Y51.915 E1.11604
G1 X61.127 Y49.719 E0.20746
G1 X72.377 Y60.970 E1.30204
G1 X72.717 Y60.382 E0.05559
G1 X59.860 Y47.524 E1.48804
G1 X58.592 Y45.328 E0.20746
G1 X73.057 Y59.793 E1.67404
G1 X73.396 Y59.205 E0.05559
G1 X57.324 Y43.133 E1.86004
G1 X57.265 Y42.145 E0.08098
G1 X73.736 Y58.617 E1.90628
G1 X74.076 Y58.028 E0.05559
G1 X58.192 Y42.145 E1.83820
G1 X59.120 Y42.145 E0.07593
G1 X74.415 Y57.440 E1.77012
G1 X74.755 Y56.852 E0.05559
G1 X60.048 Y42.145 E1.70203
G1 X60.976 Y42.145 E0.07593
G1 X75.095 Y56.264 E1.63395
G1 X75.434 Y55.675 E0.05559
G1 X61.904 Y42.145 E1.56587
G1 X62.832 Y42.145 E0.07593
G1 X75.774 Y55.087 E1.49779
G1 X76.113 Y54.499 E0.05559
G1 X63.760 Y42.145 E1.42971
G1 X64.688 Y42.145 E0.07593
G1 X76.453 Y53.911 E1.36163
G1 X76.793 Y53.322 E0.05559
G1 X65.616 Y42.145 E1.29355
G1 X66.543 Y42.145 E0.07593
G1 X77.132 Y52.734 E1.22547
G1 X77.472 Y52.146 E0.05559
G1 X67.471 Y42.145 E1.15739
G1 X68.399 Y42.145 E0.07593
G1 X77.812 Y51.558 E1.08931
G1 X78.151 Y50.969 E0.05559
G1 X69.327 Y42.145 E1.02123
G1 X70.255 Y42.145 E0.07593
G1 X78.491 Y50.381 E0.95315
G1 X78.831 Y49.793 E0.05559
G1 X71.183 Y42.145 E0.88507
G1 X72.111 Y42.145 E0.07593
G1 X79.170 Y49.205 E0.81699
G1 X79.510 Y48.616 E0.05559
G1 X73.039 Y42.145 E0.74891
G1 X73.967 Y42.145 E0.07593
G1 X79.849 Y48.028 E0.68082
G1 X80.189 Y47.440 E0.05559
G1 X74.895 Y42.145 E0.61274
G1 X75.822 Y42.145 E0.07593
G1 X80.529 Y46.851 E0.54466
G1 X80.868 Y46.263 E0.05559
G1 X76.750 Y42.145 E0.47658
G1 X77.678 Y42.145 E0.07593
G1 X81.208 Y45.675 E0.40850
G1 X81.548 Y45.087 E0.05559
G1 X78.606 Y42.145 E0.34042
G1 X79.534 Y42.145 E0.07593
G1 X81.887 Y44.498 E0.27234
G1 X82.227 Y43.910 E0.05559
G1 X80.462 Y42.145 E0.20426
G1 X81.390 Y42.145 E0.07593
G1 X82.566 Y43.322 E0.13618
G1 X82.906 Y42.734 E0.05559
G1 X82.318 Y42.145 E0.06810
G1 X83.246 Y42.145 E0.07595
G1 F18000.000 E-3.10000
G1 X87.500 Y44.602 F12000.000
G1 F18000.000 E3.10000
G1 X87.160 Y45.190 F1200.000 E0.05559
G1 X88.768 Y46.797 E0.18603
G1 X90.035 Y48.993 E0.20746
G1 X86.821 Y45.778 E0.37203
G1 X86.481 Y46.366 E0.05559
G1 X91.303 Y51.188 E0.55803
G1 X92.570 Y53.383 E0.20746
G1 X86.141 Y46.955 E0.74403
G1 X85.802 Y47.543 E0.05559
G1 X93.838 Y55.579 E0.93003
G1 X95.105 Y57.774 E0.20746
G1 X85.462 Y48.131 E1.11603
G1 X85.123 Y48.719 E0.05559
G1 X96.373 Y59.970 E1.30203
G1 X97.640 Y62.165 E0.20746
G1 X84.783 Y49.308 E1.48803
G1 X84.443 Y49.896 E0.05559
G1 X98.908 Y64.361 E1.67403
G1 X100.175 Y66.556 E0.20746
G1 X84.104 Y50.484 E1.86003
G1 X83.764 Y51.072 E0.05559
G1 X100.235 Y67.544 E1.90628
G1 X99.308 Y67.544 E0.07593
G1 X83.424 Y51.661 E1.83820
G1 X83.085 Y52.249 E0.05559
G1 X98.380 Y67.544 E1.77012
G1 X97.452 Y67.544 E0.07593
G1 X82.745 Y52.837 E1.70204
G1 X82.405 Y53.425 E0.05559
G1 X96.524 Y67.544 E1.63396
G1 X95.596 Y67.544 E0.07593
G1 X82.066 Y54.014 E1.56588
G1 X81.726 Y54.602 E0.05559
G1 X94.668 Y67.544 E1.49780
G1 X93.740 Y67.544 E0.07593
G1 X81.387 Y55.190 E1.42971
G1 X81.047 Y55.778 E0.05559
G1 X92.812 Y67.544 E1.36163
G1 X91.884 Y67.544 E0.07593
G1 X80.707 Y56.367 E1.29355
G1 X80.368 Y56.955 E0.05559
G1 X90.957 Y67.544 E1.22547
G1 X90.029 Y67.544 E0.07593
G1 X80.028 Y57.543 E1.15739
G1 X79.688 Y58.132 E0.05559
G1 X89.101 Y67.544 E1.08931
G1 X88.173 Y67.544 E0.07593
G1 X79.349 Y58.720 E1.02123
G1 X79.009 Y59.308 E0.05559
G1 X87.245 Y67.544 E0.95315
G1 X86.317 Y67.544 E0.07593
G1 X78.669 Y59.896 E0.88507
G1 X78.330 Y60.485 E0.05559
G1 X85.389 Y67.544 E0.81699
G1 X84.461 Y67.544 E0.07593
G1 X77.990 Y61.073 E0.74891
G1 X77.651 Y61.661 E0.05559
G1 X83.533 Y67.544 E0.68083
G1 X82.605 Y67.544 E0.07593
G1 X77.311 Y62.249 E0.61275
G1 X76.971 Y62.838 E0.05559
G1 X81.678 Y67.544 E0.54467
G1 X80.750 Y67.544 E0.07593
G1 X76.632 Y63.426 E0.47658
G1 X76.292 Y64.014 E0.05559
G1 X79.822 Y67.544 E0.40850
G1 X78.894 Y67.544 E0.07593
G1 X75.952 Y64.602 E0.34042
G1 X75.613 Y65.191 E0.05559
G1 X77.966 Y67.544 E0.27234
G1 X77.038 Y67.544 E0.07593
G1 X75.273 Y65.779 E0.20426
G1 X74.934 Y66.367 E0.05559
G1 X76.110 Y67.544 E0.13618
G1 X75.182 Y67.544 E0.07593
G1 X74.594 Y66.955 E0.06810
G1 X74.254 Y67.544 E0.05559
G1 F18000.000 E-3.10000
G1 X100.746 Y72.456 F12000.000
G1 F18000.000 E3.10000
G1 X99.818 Y72.456 F1200.000 E0.07595
G1 X100.406 Y73.045 E0.06810
G1 X100.066 Y73.633 E0.05559
G1 X98.890 Y72.456 E0.13618
G1 X97.962 Y72.456 E0.07593
