; generated by Slic3r 0.9.9 on 2013-11-26 at 12:59:36

; layer_height = 0.3
; perimeters = 1
; top_solid_layers = 3
; bottom_solid_layers = 3
; fill_density = 0.3
; perimeter_speed = 26
; infill_speed = 50
; travel_speed = 200
; nozzle_diameter = 0.5
; filament_diameter = 1.75
; extrusion_multiplier = 1
; perimeters extrusion width = 0.70mm
; infill extrusion width = 0.50mm
; solid infill extrusion width = 0.70mm
; top infill extrusion width = 0.70mm

G21 ; set units to millimeters
M107
M140 S60 ; set bed tempearture
M104 S195 ; set temperature
M190 S60 ; wait for bed temperature to be reached
M109 S195 ; wait for temperature to be reached
G28 ; home all axes
G90 ; use absolute coordinates
M83 ; use relative distances for extrusion
G1 F18000.000 E-3.10000
G1 Z0.300 F12000.000
G1 X45.360 Y36.829
G1 F18000.000 E3.10000
G1 X45.650 Y36.519 F780.000 E0.03465
G1 X46.160 Y36.119 E0.05291
G1 X52.410 Y32.519 E0.58879
G1 X52.840 Y32.309 E0.03906
G1 X53.290 Y32.159 E0.03872
G1 X53.990 Y32.039 E0.05798
G1 X86.000 Y32.039 E2.61306
G1 X86.700 Y32.159 E0.05798
G1 X87.160 Y32.309 E0.03950
G1 X87.590 Y32.519 E0.03906
G1 X93.660 Y36.019 E0.57198
G1 X94.010 Y36.259 E0.03464
G1 X94.340 Y36.529 E0.03481
G1 X94.490 Y36.679 E0.01732
G1 X94.760 Y37.009 E0.03481
G1 X95.000 Y37.359 E0.03464
G1 X110.760 Y64.669 E2.57397
G1 X110.950 Y65.049 E0.03468
G1 X111.150 Y65.659 E0.05240
G1 X111.240 Y66.289 E0.05195
G1 X111.240 Y73.709 E0.60571
G1 X111.190 Y74.129 E0.03453
G1 X111.090 Y74.549 E0.03524
G1 X110.950 Y74.949 E0.03460
G1 X110.760 Y75.329 E0.03468
G1 X95.000 Y102.639 E2.57397
G1 X94.760 Y102.989 E0.03464
G1 X94.490 Y103.319 E0.03481
G1 X94.340 Y103.469 E0.01732
G1 X94.010 Y103.739 E0.03481
G1 X93.660 Y103.979 E0.03464
G1 X87.590 Y107.479 E0.57198
G1 X87.160 Y107.689 E0.03906
G1 X86.700 Y107.839 E0.03950
G1 X86.000 Y107.959 E0.05798
G1 X53.990 Y107.959 E2.61306
G1 X53.290 Y107.839 E0.05798
G1 X52.830 Y107.689 E0.03950
G1 X52.400 Y107.479 E0.03906
G1 X46.330 Y103.979 E0.57198
G1 X45.980 Y103.739 E0.03464
G1 X45.650 Y103.469 E0.03481
G1 X45.500 Y103.319 E0.01732
G1 X45.230 Y102.989 E0.03481
G1 X44.990 Y102.639 E0.03464
G1 X29.230 Y75.329 E2.57397
G1 X29.040 Y74.949 E0.03468
G1 X28.840 Y74.339 E0.05240
G1 X28.750 Y73.709 E0.05195
G1 X28.750 Y66.289 E0.60571
G1 X28.800 Y65.869 E0.03453
G1 X28.900 Y65.449 E0.03524
G1 X29.040 Y65.049 E0.03460
G1 X29.230 Y64.669 E0.03468
G1 X44.990 Y37.349 E2.57468
G1 X45.300 Y36.907 E0.04409
G1 F18000.000 E-3.10000
G1 X84.068 Y103.329 F12000.000
G1 F18000.000 E3.10000
G1 X55.932 Y103.329 F780.000 E2.29674
G1 X70.000 Y78.963 E2.29674
G1 X84.018 Y103.244 E2.28872
G1 X85.201 Y103.984 F12000.000
G1 X54.799 Y103.984 F780.000 E2.48182
G1 X70.000 Y77.654 E2.48182
G1 X85.152 Y103.899 E2.47380
G1 X84.586 Y103.760 F12000.000
G1 F18000.000 E-3.10000
G1 X48.170 Y98.847 F12000.000
G1 F18000.000 E3.10000
G1 X34.102 Y74.482 F780.000 E2.29674
G1 X62.237 Y74.482 E2.29674
G1 X48.219 Y98.762 E2.28872
G1 X48.170 Y100.156 F12000.000
G1 X32.969 Y73.827 F780.000 E2.48182
G1 X63.371 Y73.827 E2.48182
G1 X48.219 Y100.071 E2.47380
G1 X48.056 Y99.512 F12000.000
G1 F18000.000 E-3.10000
G1 X48.170 Y41.153 F12000.000
G1 F18000.000 E3.10000
G1 X62.237 Y65.518 F780.000 E2.29674
G1 X34.102 Y65.518 E2.29674
G1 X48.121 Y41.238 E2.28872
G1 X47.271 Y41.401 F12000.000
G1 X48.170 Y39.844 F780.000 E0.14681
G1 X63.371 Y66.173 E2.48182
G1 X32.969 Y66.173 E2.48182
G1 X47.222 Y41.486 E2.32700
G1 X47.925 Y41.401 F12000.000
G1 F18000.000 E-3.10000
G1 X85.201 Y36.016 F12000.000
G1 F18000.000 E3.10000
G1 X70.000 Y62.345 F780.000 E2.48182
G1 X54.799 Y36.016 E2.48182
G1 X85.103 Y36.016 E2.47380
G1 F18000.000 E-3.10000
G1 X91.830 Y39.844 F12000.000
G1 F18000.000 E3.10000
G1 X107.031 Y66.173 F780.000 E2.48182
G1 X76.629 Y66.173 E2.48182
G1 X91.781 Y39.929 E2.47380
G1 F18000.000 E-3.10000
G1 X77.763 Y74.482 F12000.000
G1 F18000.000 E3.10000
G1 X105.898 Y74.482 F780.000 E2.29674
G1 X91.830 Y98.847 E2.29674
G1 X77.812 Y74.567 E2.28872
G1 X76.629 Y73.827 F12000.000
G1 X107.031 Y73.827 F780.000 E2.48182
G1 X91.830 Y100.156 E2.48182
G1 X76.678 Y73.912 E2.47380
G1 X77.244 Y74.051 F12000.000
G1 F18000.000 E-3.10000
G1 X70.000 Y79.912 F12000.000
G1 F18000.000 E3.10000
G1 X69.660 Y80.501 F1200.000 E0.05559
G1 X71.268 Y82.108 E0.18603
G1 X72.535 Y84.304 E0.20746
G1 X69.321 Y81.089 E0.37203
G1 X68.981 Y81.677 E0.05559
G1 X73.803 Y86.499 E0.55803
G1 X75.070 Y88.694 E0.20746
G1 X68.641 Y82.265 E0.74403
G1 X68.302 Y82.854 E0.05559
G1 X76.338 Y90.890 E0.93003
G1 X77.605 Y93.085 E0.20746
G1 X67.962 Y83.442 E1.11603
G1 X67.623 Y84.030 E0.05559
G1 X78.873 Y95.281 E1.30203
G1 X80.140 Y97.476 E0.20746
G1 X67.283 Y84.618 E1.48803
G1 X66.943 Y85.207 E0.05559
G1 X81.408 Y99.671 E1.67403
G1 X82.675 Y101.867 E0.20746
G1 X66.604 Y85.795 E1.86003
G1 X66.264 Y86.383 E0.05559
G1 X82.735 Y102.855 E1.90628
G1 X81.808 Y102.855 E0.07593
G1 X65.924 Y86.972 E1.83820
G1 X65.585 Y87.560 E0.05559
G1 X80.880 Y102.855 E1.77012
G1 X79.952 Y102.855 E0.07593
G1 X65.245 Y88.148 E1.70204
G1 X64.905 Y88.736 E0.05559
G1 X79.024 Y102.855 E1.63396
G1 X78.096 Y102.855 E0.07593
G1 X64.566 Y89.325 E1.56588
G1 X64.226 Y89.913 E0.05559
G1 X77.168 Y102.855 E1.49780
G1 X76.240 Y102.855 E0.07593
G1 X63.887 Y90.501 E1.42971
G1 X63.547 Y91.089 E0.05559
G1 X75.312 Y102.855 E1.36163
G1 X74.384 Y102.855 E0.07593
G1 X63.207 Y91.678 E1.29355
G1 X62.868 Y92.266 E0.05559
G1 X73.457 Y102.855 E1.22547
G1 X72.529 Y102.855 E0.07593
G1 X62.528 Y92.854 E1.15739
G1 X62.188 Y93.442 E0.05559
G1 X71.601 Y102.855 E1.08931
G1 X70.673 Y102.855 E0.07593
G1 X61.849 Y94.031 E1.02123
G1 X61.509 Y94.619 E0.05559
G1 X69.745 Y102.855 E0.95315
G1 X68.817 Y102.855 E0.07593
G1 X61.169 Y95.207 E0.88507
G1 X60.830 Y95.795 E0.05559
G1 X67.889 Y102.855 E0.81699
G1 X66.961 Y102.855 E0.07593
G1 X60.490 Y96.384 E0.74891
G1 X60.151 Y96.972 E0.05559
G1 X66.033 Y102.855 E0.68083
G1 X65.105 Y102.855 E0.07593
G1 X59.811 Y97.560 E0.61275
G1 X59.471 Y98.148 E0.05559
G1 X64.178 Y102.855 E0.54467
G1 X63.250 Y102.855 E0.07593
G1 X59.132 Y98.737 E0.47658
G1 X58.792 Y99.325 E0.05559
G1 X62.322 Y102.855 E0.40850
G1 X61.394 Y102.855 E0.07593
G1 X58.452 Y99.913 E0.34042
G1 X58.113 Y100.502 E0.05559
G1 X60.466 Y102.855 E0.27234
G1 X59.538 Y102.855 E0.07593
G1 X57.773 Y101.090 E0.20426
G1 X57.434 Y101.678 E0.05559
G1 X58.610 Y102.855 E0.13618
G1 X57.682 Y102.855 E0.07593
G1 X57.094 Y102.266 E0.06810
G1 X56.754 Y102.855 E0.05559
G1 F18000.000 E-3.10000
G1 X48.170 Y97.898 F12000.000
G1 F18000.000 E3.10000
G1 X48.510 Y97.310 F1200.000 E0.05559
G1 X46.902 Y95.703 E0.18604
G1 X48.849 Y96.722 E0.17985
G1 X45.635 Y93.507 E0.37204
G1 X44.367 Y91.312 E0.20746
G1 X49.189 Y96.134 E0.55804
G1 X49.528 Y95.545 E0.05559
G1 X43.099 Y89.116 E0.74404
G1 X41.832 Y86.921 E0.20746
G1 X49.868 Y94.957 E0.93004
G1 X50.208 Y94.369 E0.05559
G1 X40.564 Y84.726 E1.11604
G1 X39.297 Y82.530 E0.20746
G1 X50.547 Y93.781 E1.30204
G1 X50.887 Y93.192 E0.05559
G1 X38.029 Y80.335 E1.48804
G1 X36.762 Y78.139 E0.20746
G1 X51.227 Y92.604 E1.67404
G1 X51.566 Y92.016 E0.05559
G1 X35.494 Y75.944 E1.86004
G1 X35.434 Y74.956 E0.08098
G1 X51.906 Y91.428 E1.90628
G1 X52.246 Y90.839 E0.05559
G1 X36.362 Y74.956 E1.83820
G1 X37.290 Y74.956 E0.07593
G1 X52.585 Y90.251 E1.77011
G1 X52.925 Y89.663 E0.05559
G1 X38.218 Y74.956 E1.70203
G1 X39.146 Y74.956 E0.07593
G1 X53.264 Y89.075 E1.63395
G1 X53.604 Y88.486 E0.05559
G1 X40.074 Y74.956 E1.56587
G1 X41.002 Y74.956 E0.07593
G1 X53.944 Y87.898 E1.49779
G1 X54.283 Y87.310 E0.05559
G1 X41.930 Y74.956 E1.42971
G1 X42.858 Y74.956 E0.07593
G1 X54.623 Y86.722 E1.36163
G1 X54.963 Y86.133 E0.05559
G1 X43.785 Y74.956 E1.29355
G1 X44.713 Y74.956 E0.07593
G1 X55.302 Y85.545 E1.22547
G1 X55.642 Y84.957 E0.05559
G1 X45.641 Y74.956 E1.15739
G1 X46.569 Y74.956 E0.07593
G1 X55.981 Y84.368 E1.08931
G1 X56.321 Y83.780 E0.05559
G1 X47.497 Y74.956 E1.02123
G1 X48.425 Y74.956 E0.07593
G1 X56.661 Y83.192 E0.95315
G1 X57.000 Y82.604 E0.05559
G1 X49.353 Y74.956 E0.88507
G1 X50.281 Y74.956 E0.07593
G1 X57.340 Y82.015 E0.81699
G1 X57.680 Y81.427 E0.05559
G1 X51.209 Y74.956 E0.74891
G1 X52.137 Y74.956 E0.07593
G1 X58.019 Y80.839 E0.68082
G1 X58.359 Y80.251 E0.05559
G1 X53.064 Y74.956 E0.61274
G1 X53.992 Y74.956 E0.07593
G1 X58.699 Y79.662 E0.54466
G1 X59.038 Y79.074 E0.05559
G1 X54.920 Y74.956 E0.47658
G1 X55.848 Y74.956 E0.07593
G1 X59.378 Y78.486 E0.40850
G1 X59.717 Y77.898 E0.05559
G1 X56.776 Y74.956 E0.34042
G1 X57.704 Y74.956 E0.07593
G1 X60.057 Y77.309 E0.27234
G1 X60.397 Y76.721 E0.05559
G1 X58.632 Y74.956 E0.20426
G1 X59.560 Y74.956 E0.07593
G1 X60.736 Y76.133 E0.13618
G1 X61.076 Y75.545 E0.05559
G1 X60.488 Y74.956 E0.06810
G1 X61.416 Y74.956 E0.07595
G1 F18000.000 E-3.10000
G1 X34.924 Y65.044 F12000.000
G1 F18000.000 E3.10000
G1 X35.264 Y64.455 F1200.000 E0.05559
G1 X35.852 Y65.044 E0.06810
G1 X36.780 Y65.044 E0.07593
G1 X35.603 Y63.867 E0.13618
G1 X35.943 Y63.279 E0.05559
G1 X37.708 Y65.044 E0.20426
G1 X38.636 Y65.044 E0.07593
G1 X36.283 Y62.691 E0.27234
G1 X36.622 Y62.102 E0.05559
G1 X39.564 Y65.044 E0.34042
G1 X40.492 Y65.044 E0.07593
G1 X36.962 Y61.514 E0.40850
G1 X37.302 Y60.926 E0.05559
G1 X41.420 Y65.044 E0.47658
G1 X42.347 Y65.044 E0.07593
G1 X37.641 Y60.338 E0.54467
G1 X37.981 Y59.749 E0.05559
G1 X43.275 Y65.044 E0.61275
G1 X44.203 Y65.044 E0.07593
G1 X38.320 Y59.161 E0.68083
G1 X38.660 Y58.573 E0.05559
G1 X45.131 Y65.044 E0.74891
G1 X46.059 Y65.044 E0.07593
G1 X39.000 Y57.985 E0.81699
G1 X39.339 Y57.396 E0.05559
G1 X46.987 Y65.044 E0.88507
G1 X47.915 Y65.044 E0.07593
G1 X39.679 Y56.808 E0.95315
G1 X40.019 Y56.220 E0.05559
G1 X48.843 Y65.044 E1.02123
G1 X49.771 Y65.044 E0.07593
G1 X40.358 Y55.632 E1.08931
G1 X40.698 Y55.043 E0.05559
G1 X50.698 Y65.044 E1.15739
G1 X51.626 Y65.044 E0.07593
G1 X41.038 Y54.455 E1.22547
G1 X41.377 Y53.867 E0.05559
G1 X52.554 Y65.044 E1.29355
G1 X53.482 Y65.044 E0.07593
G1 X41.717 Y53.278 E1.36163
G1 X42.056 Y52.690 E0.05559
G1 X54.410 Y65.044 E1.42971
G1 X55.338 Y65.044 E0.07593
G1 X42.396 Y52.102 E1.49780
G1 X42.736 Y51.514 E0.05559
G1 X56.266 Y65.044 E1.56588
G1 X57.194 Y65.044 E0.07593
G1 X43.075 Y50.925 E1.63396
G1 X43.415 Y50.337 E0.05559
G1 X58.122 Y65.044 E1.70204
G1 X59.050 Y65.044 E0.07593
G1 X43.755 Y49.749 E1.77012
G1 X44.094 Y49.161 E0.05559
G1 X59.977 Y65.044 E1.83820
G1 X60.905 Y65.044 E0.07593
G1 X44.434 Y48.572 E1.90628
G1 X44.773 Y47.984 E0.05559
G1 X60.845 Y64.056 E1.86003
G1 X59.578 Y61.861 E0.20746
G1 X45.113 Y47.396 E1.67403
G1 X45.453 Y46.808 E0.05559
G1 X58.310 Y59.665 E1.48803
G1 X57.043 Y57.470 E0.20746
G1 X45.792 Y46.219 E1.30203
G1 X46.132 Y45.631 E0.05559
G1 X55.775 Y55.274 E1.11603
G1 X54.508 Y53.079 E0.20746
G1 X46.472 Y45.043 E0.93003
G1 X46.811 Y44.455 E0.05559
G1 X53.240 Y50.883 E0.74403
G1 X51.973 Y48.688 E0.20746
G1 X47.151 Y43.866 E0.55803
G1 X47.491 Y43.278 E0.05559
G1 X50.705 Y46.493 E0.37203
G1 X49.438 Y44.297 E0.20746
G1 X47.830 Y42.690 E0.18603
G1 X48.170 Y42.102 E0.05559
G1 F18000.000 E-3.10000
G1 X70.000 Y61.397 F12000.000
G1 F18000.000 E3.10000
G1 X70.342 Y60.804 F1200.000 E0.05648
G1 X68.722 Y59.183 E0.18904
G1 X70.685 Y60.211 E0.18276
G1 X67.444 Y56.970 E0.37805
G1 X66.167 Y54.757 E0.21081
G1 X71.027 Y59.618 E0.56705
G1 X71.370 Y59.025 E0.05649
G1 X64.889 Y52.544 E0.75606
G1 X63.611 Y50.331 E0.21081
G1 X71.712 Y58.432 E0.94506
G1 X72.054 Y57.839 E0.05649
G1 X62.333 Y48.118 E1.13406
G1 X61.056 Y45.905 E0.21081
G1 X72.397 Y57.246 E1.32307
G1 X72.739 Y56.653 E0.05649
G1 X59.778 Y43.692 E1.51207
G1 X58.500 Y41.479 E0.21081
G1 X73.081 Y56.060 E1.70107
G1 X73.424 Y55.467 E0.05649
G1 X57.223 Y39.265 E1.89008
G1 X55.945 Y37.052 E0.21081
G1 X73.766 Y54.874 E2.07908
G1 X74.108 Y54.281 E0.05649
G1 X56.319 Y36.491 E2.07542
G1 X57.254 Y36.491 E0.07716
G1 X74.451 Y53.688 E2.00624
G1 X74.793 Y53.095 E0.05649
G1 X58.189 Y36.491 E1.93706
G1 X59.125 Y36.491 E0.07716
G1 X75.136 Y52.502 E1.86788
G1 X75.478 Y51.909 E0.05649
G1 X60.060 Y36.491 E1.79870
G1 X60.995 Y36.491 E0.07716
G1 X75.820 Y51.316 E1.72952
G1 X76.163 Y50.723 E0.05649
G1 X61.931 Y36.491 E1.66034
G1 X62.866 Y36.491 E0.07716
G1 X76.505 Y50.130 E1.59116
G1 X76.847 Y49.537 E0.05649
G1 X63.801 Y36.491 E1.52198
G1 X64.737 Y36.491 E0.07716
G1 X77.190 Y48.944 E1.45280
G1 X77.532 Y48.351 E0.05649
G1 X65.672 Y36.491 E1.38362
G1 X66.607 Y36.491 E0.07716
G1 X77.874 Y47.758 E1.31444
G1 X78.217 Y47.165 E0.05649
G1 X67.543 Y36.491 E1.24526
G1 X68.478 Y36.491 E0.07716
G1 X78.559 Y46.572 E1.17608
G1 X78.902 Y45.979 E0.05649
G1 X69.414 Y36.491 E1.10690
G1 X70.349 Y36.491 E0.07716
G1 X79.244 Y45.386 E1.03772
G1 X79.586 Y44.793 E0.05649
G1 X71.284 Y36.491 E0.96854
G1 X72.220 Y36.491 E0.07716
G1 X79.929 Y44.200 E0.89936
G1 X80.271 Y43.607 E0.05649
G1 X73.155 Y36.491 E0.83018
G1 X74.090 Y36.491 E0.07716
G1 X80.613 Y43.014 E0.76100
G1 X80.956 Y42.421 E0.05649
G1 X75.026 Y36.491 E0.69182
G1 X75.961 Y36.491 E0.07716
G1 X81.298 Y41.828 E0.62264
G1 X81.640 Y41.235 E0.05649
G1 X76.896 Y36.491 E0.55346
G1 X77.832 Y36.491 E0.07716
G1 X81.983 Y40.642 E0.48428
G1 X82.325 Y40.049 E0.05649
G1 X78.767 Y36.491 E0.41510
G1 X79.702 Y36.491 E0.07716
G1 X82.668 Y39.456 E0.34592
G1 X83.010 Y38.863 E0.05649
G1 X80.638 Y36.491 E0.27674
G1 X81.573 Y36.491 E0.07716
G1 X83.352 Y38.270 E0.20756
G1 X83.695 Y37.677 E0.05649
G1 X82.509 Y36.491 E0.13838
G1 X83.444 Y36.491 E0.07716
G1 X84.037 Y37.084 E0.06920
G1 X84.379 Y36.491 E0.05649
G1 F18000.000 E-3.10000
G1 X91.830 Y40.793 F12000.000
G1 F18000.000 E3.10000
G1 X93.108 Y43.006 F1200.000 E0.21083
G1 X91.488 Y41.385 E0.18904
G1 X91.145 Y41.978 E0.05649
G1 X94.386 Y45.219 E0.37804
G1 X95.664 Y47.432 E0.21081
G1 X90.803 Y42.571 E0.56705
G1 X90.461 Y43.164 E0.05649
G1 X96.941 Y49.645 E0.75605
G1 X98.219 Y51.858 E0.21081
G1 X90.118 Y43.757 E0.94505
G1 X89.776 Y44.350 E0.05649
G1 X99.497 Y54.071 E1.13406
G1 X100.774 Y56.284 E0.21081
G1 X89.434 Y44.943 E1.32306
G1 X89.091 Y45.536 E0.05649
G1 X102.052 Y58.497 E1.51206
G1 X103.330 Y60.710 E0.21081
G1 X88.749 Y46.129 E1.70107
G1 X88.406 Y46.722 E0.05649
G1 X104.608 Y62.924 E1.89007
G1 X105.885 Y65.137 E0.21081
G1 X88.064 Y47.315 E2.07908
G1 X87.722 Y47.908 E0.05649
G1 X105.512 Y65.698 E2.07543
G1 X104.576 Y65.698 E0.07716
G1 X87.379 Y48.501 E2.00625
G1 X87.037 Y49.094 E0.05649
G1 X103.641 Y65.698 E1.93707
G1 X102.706 Y65.698 E0.07716
G1 X86.695 Y49.687 E1.86789
G1 X86.352 Y50.280 E0.05649
G1 X101.770 Y65.698 E1.79871
G1 X100.835 Y65.698 E0.07716
G1 X86.010 Y50.873 E1.72953
G1 X85.667 Y51.466 E0.05649
G1 X99.899 Y65.698 E1.66035
G1 X98.964 Y65.698 E0.07716
G1 X85.325 Y52.059 E1.59116
G1 X84.983 Y52.652 E0.05649
G1 X98.029 Y65.698 E1.52198
G1 X97.093 Y65.698 E0.07716
G1 X84.640 Y53.245 E1.45280
G1 X84.298 Y53.838 E0.05649
G1 X96.158 Y65.698 E1.38362
G1 X95.223 Y65.698 E0.07716
G1 X83.956 Y54.431 E1.31444
G1 X83.613 Y55.024 E0.05649
G1 X94.287 Y65.698 E1.24526
G1 X93.352 Y65.698 E0.07716
G1 X83.271 Y55.617 E1.17608
G1 X82.929 Y56.210 E0.05649
G1 X92.417 Y65.698 E1.10690
G1 X91.481 Y65.698 E0.07716
G1 X82.586 Y56.803 E1.03772
G1 X82.244 Y57.396 E0.05649
G1 X90.546 Y65.698 E0.96854
G1 X89.611 Y65.698 E0.07716
G1 X81.901 Y57.989 E0.89936
G1 X81.559 Y58.582 E0.05649
G1 X88.675 Y65.698 E0.83018
G1 X87.740 Y65.698 E0.07716
G1 X81.217 Y59.175 E0.76100
G1 X80.874 Y59.768 E0.05649
G1 X86.804 Y65.698 E0.69182
G1 X85.869 Y65.698 E0.07716
G1 X80.532 Y60.361 E0.62264
G1 X80.190 Y60.954 E0.05649
G1 X84.934 Y65.698 E0.55346
G1 X83.998 Y65.698 E0.07716
G1 X79.847 Y61.547 E0.48428
G1 X79.505 Y62.140 E0.05649
G1 X83.063 Y65.698 E0.41510
G1 X82.128 Y65.698 E0.07716
G1 X79.163 Y62.733 E0.34592
G1 X78.820 Y63.326 E0.05649
G1 X81.192 Y65.698 E0.27674
G1 X80.257 Y65.698 E0.07716
G1 X78.478 Y63.919 E0.20756
G1 X78.135 Y64.512 E0.05649
G1 X79.322 Y65.698 E0.13838
G1 X78.386 Y65.698 E0.07716
G1 X77.793 Y65.105 E0.06920
G1 X77.451 Y65.698 E0.05649
G1 F18000.000 E-3.10000
G1 X105.076 Y74.956 F12000.000
G1 F18000.000 E3.10000
G1 X104.148 Y74.956 F1200.000 E0.07595
G1 X104.736 Y75.545 E0.06810
G1 X104.397 Y76.133 E0.05559
G1 X103.220 Y74.956 E0.13618
G1 X102.292 Y74.956 E0.07593
G1 X104.057 Y76.721 E0.20426
G1 X103.717 Y77.309 E0.05559
