; generated by Slic3r 0.9.9 on 2013-11-26 at 11:05:08

; layer_height = 0.3
; perimeters = 1
; top_solid_layers = 3
; bottom_solid_layers = 3
; fill_density = 0.3
; perimeter_speed = 26
; infill_speed = 50
; travel_speed = 200
; nozzle_diameter = 0.5
; filament_diameter = 1.75
; extrusion_multiplier = 1
; perimeters extrusion width = 0.70mm
; infill extrusion width = 0.50mm
; solid infill extrusion width = 0.70mm
; top infill extrusion width = 0.70mm

G21 ; set units to millimeters
M107
M140 S60 ; set bed tempearture
M104 S195 ; set temperature
M190 S60 ; wait for bed temperature to be reached
M109 S195 ; wait for temperature to be reached
G28 ; home all axes
G90 ; use absolute coordinates
M83 ; use relative distances for extrusion
G1 F18000.000 E-3.10000
G1 Z0.300 F12000.000
G1 X49.540 Y37.529
G1 F18000.000 E3.10000
G1 X49.800 Y37.219 F780.000 E0.03303
G1 X50.090 Y36.929 E0.03348
G1 X50.410 Y36.689 E0.03265
G1 X50.750 Y36.479 E0.03262
G1 X51.110 Y36.299 E0.03286
G1 X51.500 Y36.169 E0.03356
G1 X51.690 Y36.119 E0.01604
G1 X52.290 Y36.039 E0.04941
G1 X87.700 Y36.039 E2.89061
G1 X88.330 Y36.129 E0.05195
G1 X88.740 Y36.249 E0.03487
G1 X89.120 Y36.419 E0.03398
G1 X89.490 Y36.629 E0.03473
G1 X89.830 Y36.879 E0.03445
G1 X90.140 Y37.169 E0.03465
G1 X90.540 Y37.669 E0.05227
G1 X90.650 Y37.849 E0.01722
G1 X108.160 Y68.169 E2.85820
G1 X108.340 Y68.529 E0.03286
G1 X108.480 Y68.909 E0.03306
G1 X108.580 Y69.299 E0.03287
G1 X108.630 Y69.699 E0.03291
G1 X108.640 Y70.099 E0.03266
G1 X108.580 Y70.699 E0.04922
G1 X108.480 Y71.089 E0.03287
G1 X108.340 Y71.469 E0.03306
G1 X108.150 Y71.829 E0.03323
G1 X90.650 Y102.139 E2.85708
G1 X90.550 Y102.309 E0.01610
G1 X90.180 Y102.789 E0.04947
G1 X89.890 Y103.069 E0.03291
G1 X89.400 Y103.419 E0.04916
G1 X88.870 Y103.699 E0.04893
G1 X88.680 Y103.769 E0.01653
G1 X88.290 Y103.879 E0.03308
G1 X87.690 Y103.959 E0.04941
G1 X52.290 Y103.959 E2.88980
G1 X51.690 Y103.879 E0.04941
G1 X51.300 Y103.769 E0.03308
G1 X51.110 Y103.699 E0.01653
G1 X50.580 Y103.419 E0.04893
G1 X50.240 Y103.189 E0.03351
G1 X49.940 Y102.929 E0.03241
G1 X49.540 Y102.469 E0.04976
G1 X49.320 Y102.139 E0.03238
G1 X31.830 Y71.829 E2.85667
G1 X31.650 Y71.469 E0.03286
G1 X31.510 Y71.089 E0.03306
G1 X31.410 Y70.699 E0.03287
G1 X31.360 Y70.299 E0.03291
G1 X31.350 Y69.899 E0.03266
G1 X31.410 Y69.299 E0.04922
G1 X31.510 Y68.909 E0.03287
G1 X31.650 Y68.529 E0.03306
G1 X31.830 Y68.169 E0.03286
G1 X49.320 Y37.859 E2.85667
G1 X49.484 Y37.610 E0.02436
G1 F18000.000 E-3.10000
G1 X87.445 Y98.870 F12000.000
G1 F18000.000 E3.10000
G1 X87.066 Y98.832 F780.000 E0.03106
G1 X86.782 Y98.890 E0.02367
G1 X86.538 Y99.058 E0.02420
G1 X86.251 Y99.493 E0.04253
G1 X70.000 Y71.346 E2.65319
G1 X53.720 Y99.542 E2.65788
G1 X53.564 Y99.196 E0.03106
G1 X53.371 Y98.979 E0.02367
G1 X53.104 Y98.851 E0.02421
G1 X52.584 Y98.820 E0.04253
G1 X68.835 Y70.673 E2.65319
G1 X36.276 Y70.673 E2.65788
G1 X36.498 Y70.364 E0.03106
G1 X36.589 Y70.089 E0.02367
G1 X36.566 Y69.793 E0.02420
G1 X36.333 Y69.327 E0.04253
G1 X68.835 Y69.327 E2.65319
G1 X52.555 Y41.130 E2.65788
G1 X52.934 Y41.168 E0.03106
G1 X53.218 Y41.110 E0.02367
G1 X53.462 Y40.942 E0.02420
G1 X53.749 Y40.507 E0.04253
G1 X70.000 Y68.655 E2.65320
G1 X86.280 Y40.458 E2.65788
G1 X86.436 Y40.804 E0.03106
G1 X86.629 Y41.021 E0.02367
G1 X86.896 Y41.149 E0.02420
G1 X87.416 Y41.180 E0.04253
G1 X71.165 Y69.327 E2.65320
G1 X103.724 Y69.327 E2.65788
G1 X103.502 Y69.636 E0.03106
G1 X103.411 Y69.911 E0.02367
G1 X103.434 Y70.207 E0.02420
G1 X103.667 Y70.673 E0.04253
G1 X71.165 Y70.673 E2.65320
G1 X87.396 Y98.785 E2.64987
G1 X86.390 Y99.989 F12000.000
G1 X86.504 Y99.653 F780.000 E0.02898
G1 X86.491 Y99.967 F12000.000
G1 X86.522 Y99.978 F780.000 E0.00268
G1 X86.522 Y99.978 F12000.000
G1 X87.081 Y100.109 F780.000 E0.04683
G1 X87.081 Y100.109 F12000.000
G1 X87.440 Y100.076 F780.000 E0.02945
G1 X87.737 Y99.448 E0.05674
G1 X87.569 Y99.322 E0.01717
G1 X87.719 Y99.363 F12000.000
G1 X87.992 Y99.195 F780.000 E0.02617
G1 X87.992 Y99.195 F12000.000
G1 X88.068 Y98.748 F780.000 E0.03704
G1 X88.068 Y98.748 F12000.000
G1 X88.079 Y98.309 F780.000 E0.03588
G1 X89.566 Y95.726 E0.24327
G1 X89.566 Y95.726 F12000.000
G1 X89.738 Y95.428 F780.000 E0.02811
G1 X89.738 Y95.428 F12000.000
G1 X93.177 Y89.461 F780.000 E0.56222
G1 X93.177 Y89.461 F12000.000
G1 X93.865 Y88.268 F780.000 E0.11244
G1 X93.865 Y88.268 F12000.000
G1 X103.459 Y71.656 F780.000 E1.56592
G1 X104.160 Y71.031 E0.07673
G1 X104.209 Y70.709 E0.02659
G1 X103.932 Y70.534 E0.02675
G1 X104.209 Y70.709 F12000.000
G1 X104.464 Y70.532 F780.000 E0.02528
G1 X104.767 Y69.935 E0.05473
G1 X104.289 Y69.336 E0.06251
G1 X104.280 Y69.016 E0.02617
G1 X104.058 Y68.744 E0.02865
G1 X103.555 Y68.498 E0.04569
G1 X99.994 Y62.341 E0.58060
G1 X99.994 Y62.341 F12000.000
G1 X97.562 Y58.097 F780.000 E0.39932
G1 X97.562 Y58.097 F12000.000
G1 X97.389 Y57.797 F780.000 E0.02827
G1 X97.389 Y57.797 F12000.000
G1 X94.101 Y52.096 F780.000 E0.53720
G1 X94.101 Y52.096 F12000.000
G1 X91.722 Y48.031 F780.000 E0.38453
G1 X91.722 Y48.031 F12000.000
G1 X90.000 Y45.049 F780.000 E0.28111
G1 X90.000 Y45.049 F12000.000
G1 X88.386 Y42.198 F780.000 E0.26741
G1 X88.386 Y42.198 F12000.000
G1 X88.211 Y41.899 F780.000 E0.02827
G1 X88.211 Y41.899 F12000.000
G1 X88.164 Y41.852 F780.000 E0.00544
G1 X88.164 Y41.852 F12000.000
G1 X88.080 Y41.689 F780.000 E0.01497
G1 X88.080 Y41.689 F12000.000
G1 X88.093 Y41.199 F780.000 E0.04002
G1 X87.718 Y40.728 E0.04913
G1 X87.428 Y40.881 F12000.000
G1 X87.718 Y40.728 F780.000 E0.02675
G1 X87.399 Y39.916 E0.07125
G1 X86.570 Y39.973 E0.06782
G1 X86.287 Y39.820 E0.02622
G1 X85.476 Y40.189 E0.07271
G1 X62.376 Y40.189 E1.88575
G1 X62.376 Y40.189 F12000.000
G1 X54.523 Y40.189 F780.000 E0.64104
G1 X54.059 Y39.904 E0.04446
G1 X53.509 Y40.033 E0.04620
G1 X53.020 Y39.835 E0.04305
G1 X52.560 Y39.924 E0.03824
G1 X52.281 Y40.637 E0.06251
G1 X52.008 Y40.805 E0.02617
G1 X51.884 Y41.133 E0.02865
G1 X51.921 Y41.691 E0.04569
G1 X37.940 Y65.877 E2.28051
G1 X37.940 Y65.877 F12000.000
G1 X37.531 Y66.646 F780.000 E0.07111
G1 X37.531 Y66.646 F12000.000
G1 X36.730 Y67.978 F780.000 E0.12687
G1 X36.730 Y67.978 F12000.000
G1 X36.254 Y68.627 F780.000 E0.06567
G1 X36.254 Y68.627 F12000.000
G1 X35.840 Y68.969 F780.000 E0.04388
G1 X35.775 Y69.313 E0.02855
G1 X35.775 Y69.313 F12000.000
G1 X35.247 Y69.974 F780.000 E0.06908
G1 X35.247 Y69.974 F12000.000
G1 X35.233 Y70.065 F780.000 E0.00753
G1 X35.233 Y70.065 F12000.000
G1 X35.380 Y70.263 F780.000 E0.02010
G1 X35.380 Y70.263 F12000.000
G1 X35.401 Y70.368 F780.000 E0.00877
G1 X35.401 Y70.368 F12000.000
G1 X35.629 Y70.637 F780.000 E0.02874
G1 X35.822 Y70.554 E0.01717
G1 X35.711 Y70.664 F12000.000
G1 X35.720 Y70.984 F780.000 E0.02617
G1 X35.720 Y70.984 F12000.000
G1 X36.445 Y71.502 F780.000 E0.07273
G1 X36.445 Y71.502 F12000.000
G1 X36.558 Y71.697 F780.000 E0.01838
G1 X36.558 Y71.697 F12000.000
G1 X37.592 Y73.486 F780.000 E0.16866
G1 X37.592 Y73.486 F12000.000
G1 X37.941 Y74.101 F780.000 E0.05775
G1 X37.941 Y74.101 F12000.000
G1 X51.525 Y97.599 F780.000 E2.21568
G1 X51.920 Y98.311 E0.06645
G1 X51.907 Y98.801 E0.04002
G1 X52.271 Y99.264 E0.04811
G1 X52.271 Y99.264 F12000.000
G1 X52.572 Y99.119 F780.000 E0.02726
G1 X52.282 Y99.272 F12000.000
G1 X52.601 Y100.084 F780.000 E0.07124
G1 X52.918 Y100.113 E0.02593
G1 X52.918 Y100.113 F12000.000
G1 X53.443 Y100.016 F780.000 E0.04362
G1 X53.414 Y99.886 F12000.000
G1 X53.713 Y100.180 F780.000 E0.03424
G1 X54.524 Y99.811 E0.07271
G1 X85.477 Y99.811 E2.52679
G1 X85.941 Y100.096 E0.04446
G1 X86.390 Y99.989 E0.03773
G1 F18000.000 E-3.10000
G1 X53.439 Y99.760 F12000.000
G1 F18000.000 E3.10000
G1 X53.414 Y99.886 F780.000 E0.01047
G1 F18000.000 E-3.10000
G1 X36.068 Y69.466 F12000.000
G1 F18000.000 E3.10000
G1 X35.791 Y69.291 F780.000 E0.02675
G1 F18000.000 E-3.10000
G1 X52.281 Y40.637 F12000.000
G1 F18000.000 E3.10000
G1 X52.431 Y40.678 F780.000 E0.01274
G1 X53.496 Y40.347 F12000.000
G1 X53.509 Y40.033 F780.000 E0.02566
G1 F18000.000 E-3.10000
G1 X86.570 Y39.973 F12000.000
G1 F18000.000 E3.10000
G1 X86.581 Y40.081 F780.000 E0.00885
G1 X86.581 Y40.081 F12000.000
G1 X86.609 Y40.124 F780.000 E0.00421
G1 F18000.000 E-3.10000
G1 X104.289 Y69.336 F12000.000
G1 F18000.000 E3.10000
G1 X104.201 Y69.400 F780.000 E0.00884
G1 X104.201 Y69.400 F12000.000
G1 X104.178 Y69.446 F780.000 E0.00421
G1 F18000.000 E-3.10000
G1 X53.846 Y97.568 F12000.000
G1 F18000.000 E3.10000
G1 X54.015 Y97.275 F600.000 E0.01378
G1 X54.164 Y97.424 E0.00857
G1 X54.290 Y97.550 F12000.000
G1 X54.317 Y97.577 F600.000 E0.00153
G1 X54.486 Y97.284 E0.01378
G1 X54.184 Y96.982 E0.01740
G1 X54.353 Y96.689 E0.01378
G1 X54.655 Y96.991 E0.01740
G1 X54.824 Y96.698 E0.01378
G1 X54.522 Y96.396 E0.01740
G1 X54.691 Y96.103 E0.01378
G1 X54.993 Y96.405 E0.01740
G1 X55.162 Y96.113 E0.01378
G1 X54.860 Y95.811 E0.01740
G1 X55.029 Y95.518 E0.01378
G1 X55.331 Y95.820 E0.01740
G1 X55.500 Y95.527 E0.01378
G1 X55.198 Y95.225 E0.01740
G1 X55.367 Y94.932 E0.01378
G1 X55.669 Y95.234 E0.01740
G1 X55.838 Y94.941 E0.01378
G1 X55.536 Y94.639 E0.01740
G1 X55.705 Y94.346 E0.01378
G1 X56.007 Y94.648 E0.01740
G1 X56.177 Y94.355 E0.01378
G1 X55.875 Y94.053 E0.01740
G1 X56.044 Y93.761 E0.01378
G1 X56.346 Y94.063 E0.01740
G1 X56.515 Y93.770 E0.01378
G1 X56.213 Y93.468 E0.01740
G1 X56.382 Y93.175 E0.01378
G1 X56.684 Y93.477 E0.01740
G1 X56.853 Y93.184 E0.01378
G1 X56.551 Y92.882 E0.01740
G1 X56.720 Y92.589 E0.01378
G1 X57.022 Y92.891 E0.01740
G1 X57.191 Y92.598 E0.01378
G1 X56.889 Y92.296 E0.01740
G1 X57.058 Y92.004 E0.01378
G1 X57.360 Y92.306 E0.01740
G1 X57.529 Y92.013 E0.01378
G1 X57.227 Y91.711 E0.01740
G1 X57.396 Y91.418 E0.01378
G1 X57.698 Y91.720 E0.01740
G1 X57.867 Y91.427 E0.01378
G1 X57.565 Y91.125 E0.01740
G1 X57.734 Y90.832 E0.01378
G1 X58.036 Y91.134 E0.01740
G1 X58.205 Y90.841 E0.01378
G1 X57.903 Y90.539 E0.01740
G1 X58.073 Y90.246 E0.01378
G1 X58.374 Y90.548 E0.01740
G1 X58.544 Y90.256 E0.01378
G1 X58.242 Y89.954 E0.01740
G1 X58.411 Y89.661 E0.01378
G1 X58.713 Y89.963 E0.01740
G1 X58.882 Y89.670 E0.01378
G1 X58.580 Y89.368 E0.01740
G1 X58.749 Y89.075 E0.01378
G1 X59.051 Y89.377 E0.01740
G1 X59.220 Y89.084 E0.01378
G1 X58.918 Y88.782 E0.01740
G1 X59.087 Y88.489 E0.01378
G1 X59.389 Y88.791 E0.01740
G1 X59.558 Y88.499 E0.01378
G1 X59.256 Y88.197 E0.01740
G1 X59.425 Y87.904 E0.01378
G1 X59.727 Y88.206 E0.01740
G1 X59.896 Y87.913 E0.01378
G1 X59.594 Y87.611 E0.01740
G1 X59.763 Y87.318 E0.01378
G1 X60.065 Y87.620 E0.01740
G1 X60.234 Y87.327 E0.01378
G1 X59.932 Y87.025 E0.01740
G1 X60.101 Y86.732 E0.01378
G1 X60.403 Y87.034 E0.01740
G1 X60.572 Y86.742 E0.01378
G1 X60.270 Y86.440 E0.01740
G1 X60.440 Y86.147 E0.01378
G1 X60.742 Y86.449 E0.01740
G1 X60.911 Y86.156 E0.01378
G1 X60.609 Y85.854 E0.01740
G1 X60.778 Y85.561 E0.01378
G1 X61.080 Y85.863 E0.01740
G1 X61.249 Y85.570 E0.01378
G1 X60.947 Y85.268 E0.01740
G1 X61.116 Y84.975 E0.01378
G1 X61.418 Y85.277 E0.01740
G1 X61.587 Y84.984 E0.01378
G1 X61.285 Y84.682 E0.01740
G1 X61.454 Y84.390 E0.01378
G1 X61.756 Y84.692 E0.01740
G1 X61.925 Y84.399 E0.01378
G1 X61.623 Y84.097 E0.01740
G1 X61.792 Y83.804 E0.01378
G1 X62.094 Y84.106 E0.01740
G1 X62.263 Y83.813 E0.01378
G1 X61.961 Y83.511 E0.01740
G1 X62.130 Y83.218 E0.01378
G1 X62.432 Y83.520 E0.01740
G1 X62.601 Y83.227 E0.01378
G1 X62.299 Y82.925 E0.01740
G1 X62.468 Y82.633 E0.01378
G1 X62.770 Y82.935 E0.01740
G1 X62.939 Y82.642 E0.01378
G1 X62.637 Y82.340 E0.01740
G1 X62.807 Y82.047 E0.01378
G1 X63.109 Y82.349 E0.01740
G1 X63.278 Y82.056 E0.01378
G1 X62.976 Y81.754 E0.01740
G1 X63.145 Y81.461 E0.01378
G1 X63.447 Y81.763 E0.01740
G1 X63.616 Y81.470 E0.01378
G1 X63.314 Y81.168 E0.01740
G1 X63.483 Y80.876 E0.01378
G1 X63.785 Y81.177 E0.01740
G1 X63.954 Y80.885 E0.01378
G1 X63.652 Y80.583 E0.01740
G1 X63.821 Y80.290 E0.01378
G1 X64.123 Y80.592 E0.01740
G1 X64.292 Y80.299 E0.01378
G1 X63.990 Y79.997 E0.01740
G1 X64.159 Y79.704 E0.01378
G1 X64.461 Y80.006 E0.01740
G1 X64.630 Y79.713 E0.01378
G1 X64.328 Y79.411 E0.01740
G1 X64.497 Y79.118 E0.01378
G1 X64.799 Y79.420 E0.01740
G1 X64.968 Y79.128 E0.01378
G1 X64.666 Y78.826 E0.01740
G1 X64.835 Y78.533 E0.01378
G1 X65.137 Y78.835 E0.01740
G1 X65.306 Y78.542 E0.01378
G1 X65.005 Y78.240 E0.01740
G1 X65.174 Y77.947 E0.01378
G1 X65.476 Y78.249 E0.01740
G1 X65.645 Y77.956 E0.01378
G1 X65.343 Y77.654 E0.01740
G1 X65.512 Y77.361 E0.01378
G1 X65.814 Y77.663 E0.01740
G1 X65.983 Y77.371 E0.01378
G1 X65.681 Y77.069 E0.01740
G1 X65.850 Y76.776 E0.01378
G1 X66.152 Y77.078 E0.01740
G1 X66.321 Y76.785 E0.01378
G1 X66.019 Y76.483 E0.01740
G1 X66.188 Y76.190 E0.01378
G1 X66.490 Y76.492 E0.01740
G1 X66.659 Y76.199 E0.01378
G1 X66.357 Y75.897 E0.01740
G1 X66.526 Y75.604 E0.01378
G1 X66.828 Y75.906 E0.01740
G1 X66.997 Y75.613 E0.01378
G1 X66.695 Y75.311 E0.01740
G1 X66.864 Y75.019 E0.01378
G1 X67.166 Y75.321 E0.01740
G1 X67.335 Y75.028 E0.01378
G1 X67.033 Y74.726 E0.01740
G1 X67.202 Y74.433 E0.01378
G1 X67.504 Y74.735 E0.01740
G1 X67.674 Y74.442 E0.01378
G1 X67.372 Y74.140 E0.01740
G1 X67.541 Y73.847 E0.01378
G1 X67.843 Y74.149 E0.01740
G1 X68.012 Y73.856 E0.01378
G1 X67.710 Y73.554 E0.01740
G1 X67.879 Y73.262 E0.01378
G1 X68.181 Y73.564 E0.01740
G1 X68.350 Y73.271 E0.01378
G1 X68.048 Y72.969 E0.01740
G1 X68.217 Y72.676 E0.01378
G1 X68.519 Y72.978 E0.01740
G1 X68.688 Y72.685 E0.01378
G1 X68.386 Y72.383 E0.01740
G1 X68.555 Y72.090 E0.01378
G1 X68.857 Y72.392 E0.01740
G1 X69.026 Y72.099 E0.01378
G1 X68.724 Y71.797 E0.01740
G1 X68.893 Y71.505 E0.01378
G1 X69.195 Y71.807 E0.01740
G1 X69.364 Y71.514 E0.01378
G1 X69.062 Y71.212 E0.01740
G1 X69.231 Y70.919 E0.01378
G1 X69.533 Y71.221 E0.01740
G1 X69.702 Y70.928 E0.01378
G1 X69.400 Y70.626 E0.01740
G1 X69.569 Y70.333 E0.01378
G1 X69.871 Y70.635 E0.01740
G1 F18000.000 E-3.10000
G1 X77.421 Y83.265 F12000.000
G1 F18000.000 E3.10000
G1 X78.548 Y84.392 F600.000 E0.06493
G1 X78.052 Y84.358 E0.02026
G1 X79.179 Y85.485 E0.06493
G1 X78.683 Y85.451 E0.02026
G1 X79.810 Y86.578 E0.06493
G1 X79.314 Y86.544 E0.02026
G1 X80.441 Y87.671 E0.06493
G1 X79.944 Y87.637 E0.02026
G1 X81.072 Y88.764 E0.06493
G1 X80.575 Y88.730 E0.02026
G1 X81.703 Y89.857 E0.06493
G1 X81.206 Y89.823 E0.02026
G1 X82.334 Y90.950 E0.06493
G1 X81.837 Y90.916 E0.02026
G1 X82.964 Y92.043 E0.06493
G1 X82.468 Y92.009 E0.02026
G1 X83.595 Y93.136 E0.06493
G1 X83.099 Y93.101 E0.02026
G1 X84.226 Y94.228 E0.06493
G1 X83.730 Y94.194 E0.02026
G1 X84.857 Y95.321 E0.06493
G1 X84.361 Y95.287 E0.02026
G1 X85.488 Y96.414 E0.06493
G1 X84.992 Y96.380 E0.02026
G1 X86.119 Y97.507 E0.06493
G1 X85.935 Y97.785 E0.01357
G1 X85.623 Y97.473 E0.01795
G1 F18000.000 E-3.10000
G1 X77.917 Y83.299 F12000.000
G1 F18000.000 E3.10000
G1 X76.790 Y82.172 F600.000 E0.06493
G1 X77.286 Y82.206 E0.02026
G1 X76.159 Y81.079 E0.06493
G1 X76.655 Y81.114 E0.02026
G1 X75.528 Y79.987 E0.06493
G1 X76.024 Y80.021 E0.02026
G1 X74.897 Y78.894 E0.06493
G1 X75.393 Y78.928 E0.02026
G1 X74.266 Y77.801 E0.06493
G1 X74.762 Y77.835 E0.02026
G1 X73.635 Y76.708 E0.06493
G1 X74.131 Y76.742 E0.02026
G1 X73.004 Y75.615 E0.06493
G1 X73.500 Y75.649 E0.02026
G1 X72.373 Y74.522 E0.06493
G1 X72.869 Y74.556 E0.02026
G1 X71.742 Y73.429 E0.06493
G1 X72.238 Y73.463 E0.02026
G1 X71.111 Y72.336 E0.06493
G1 X71.607 Y72.370 E0.02026
G1 X70.480 Y71.243 E0.06493
G1 X70.976 Y71.277 E0.02026
G1 X69.492 Y69.794 E0.08548
G1 X69.443 Y70.206 F12000.000
G1 X69.030 Y69.794 F600.000 E0.02377
G1 X68.981 Y70.206 E0.01693
G1 X68.568 Y69.794 E0.02377
G1 X68.519 Y70.206 E0.01693
G1 X68.106 Y69.794 E0.02377
G1 X68.057 Y70.206 E0.01693
G1 X67.644 Y69.794 E0.02377
G1 X67.595 Y70.206 E0.01693
G1 X67.182 Y69.794 E0.02377
G1 X67.133 Y70.206 E0.01693
G1 X66.721 Y69.794 E0.02377
G1 X66.671 Y70.206 E0.01693
G1 X66.259 Y69.794 E0.02377
G1 X66.209 Y70.206 E0.01693
G1 X65.797 Y69.794 E0.02377
G1 X65.747 Y70.206 E0.01693
G1 X65.335 Y69.794 E0.02377
G1 X65.285 Y70.206 E0.01693
G1 X64.873 Y69.794 E0.02377
G1 X64.823 Y70.206 E0.01693
G1 X64.411 Y69.794 E0.02377
G1 X64.362 Y70.206 E0.01693
G1 X63.949 Y69.794 E0.02377
G1 X63.900 Y70.206 E0.01693
G1 X63.487 Y69.794 E0.02377
G1 X63.438 Y70.206 E0.01693
