; generated by Slic3r 0.9.9 on 2013-11-26 at 13:00:03

; layer_height = 0.3
; perimeters = 1
; top_solid_layers = 3
; bottom_solid_layers = 3
; fill_density = 0.3
; perimeter_speed = 26
; infill_speed = 50
; travel_speed = 200
; nozzle_diameter = 0.5
; filament_diameter = 1.75
; extrusion_multiplier = 1
; perimeters extrusion width = 0.70mm
; infill extrusion width = 0.50mm
; solid infill extrusion width = 0.70mm
; top infill extrusion width = 0.70mm

G21 ; set units to millimeters
M107
M140 S60 ; set bed tempearture
M104 S195 ; set temperature
M190 S60 ; wait for bed temperature to be reached
M109 S195 ; wait for temperature to be reached
G28 ; home all axes
G90 ; use absolute coordinates
M83 ; use relative distances for extrusion
G1 F18000.000 E-3.10000
G1 Z0.300 F12000.000
G1 X49.560 Y39.489
G1 F18000.000 E3.10000
G1 X49.990 Y39.009 F780.000 E0.05261
G1 X50.320 Y38.739 E0.03481
G1 X50.680 Y38.499 E0.03532
G1 X52.420 Y37.509 E0.16342
G1 X52.630 Y37.399 E0.01935
G1 X53.070 Y37.219 E0.03881
G1 X53.530 Y37.099 E0.03881
G1 X53.990 Y37.039 E0.03787
G1 X86.000 Y37.039 E2.61306
G1 X86.700 Y37.159 E0.05798
G1 X87.150 Y37.309 E0.03872
G1 X87.580 Y37.519 E0.03906
G1 X89.320 Y38.519 E0.16383
G1 X89.680 Y38.759 E0.03532
G1 X90.010 Y39.029 E0.03481
G1 X90.300 Y39.339 E0.03465
G1 X90.670 Y39.859 E0.05210
G1 X106.530 Y67.359 E2.59149
G1 X106.620 Y67.549 E0.01716
G1 X106.760 Y67.949 E0.03460
G1 X106.820 Y68.159 E0.01783
G1 X106.890 Y68.579 E0.03476
G1 X106.910 Y68.789 E0.01722
G1 X106.910 Y71.209 E0.19755
G1 X106.860 Y71.629 E0.03453
G1 X106.760 Y72.049 E0.03524
G1 X106.620 Y72.449 E0.03460
G1 X106.430 Y72.829 E0.03468
G1 X90.670 Y100.139 E2.57397
G1 X90.430 Y100.489 E0.03464
G1 X90.160 Y100.819 E0.03481
G1 X89.850 Y101.109 E0.03465
G1 X89.500 Y101.369 E0.03559
G1 X87.580 Y102.479 E0.18104
G1 X87.150 Y102.689 E0.03906
G1 X86.700 Y102.839 E0.03872
G1 X86.000 Y102.959 E0.05798
G1 X53.990 Y102.959 E2.61306
G1 X53.290 Y102.839 E0.05798
G1 X52.840 Y102.689 E0.03872
G1 X52.410 Y102.479 E0.03906
G1 X50.670 Y101.479 E0.16383
G1 X50.310 Y101.239 E0.03532
G1 X49.980 Y100.969 E0.03481
G1 X49.690 Y100.659 E0.03465
G1 X49.320 Y100.139 E0.05210
G1 X33.460 Y72.639 E2.59149
G1 X33.370 Y72.449 E0.01716
G1 X33.230 Y72.049 E0.03460
G1 X33.170 Y71.839 E0.01783
G1 X33.100 Y71.419 E0.03476
G1 X33.080 Y71.209 E0.01722
G1 X33.080 Y68.789 E0.19755
G1 X33.130 Y68.369 E0.03453
G1 X33.230 Y67.949 E0.03524
G1 X33.370 Y67.549 E0.03460
G1 X33.560 Y67.169 E0.03468
G1 X49.320 Y39.849 E2.57468
G1 X49.506 Y39.571 E0.02731
G1 F18000.000 E-3.10000
G1 X55.932 Y98.329 F12000.000
G1 F18000.000 E3.10000
G1 X70.000 Y73.963 F780.000 E2.29674
G1 X84.068 Y98.329 E2.29674
G1 X56.031 Y98.329 E2.28872
G1 X54.799 Y98.984 F12000.000
G1 X70.000 Y72.654 F780.000 E2.48182
G1 X85.201 Y98.984 E2.48182
G1 X54.897 Y98.984 E2.47380
G1 X55.300 Y98.563 F12000.000
G1 F18000.000 E-3.10000
G1 X37.299 Y71.327 F12000.000
G1 F18000.000 E3.10000
G1 X67.701 Y71.327 F780.000 E2.48182
G1 X52.500 Y97.656 E2.48182
G1 X37.348 Y71.412 E2.47380
G1 F18000.000 E-3.10000
G1 X38.432 Y68.018 F12000.000
G1 F18000.000 E3.10000
G1 X52.500 Y43.653 F780.000 E2.29674
G1 X66.568 Y68.018 E2.29674
G1 X38.531 Y68.018 E2.28872
G1 X37.299 Y68.673 F12000.000
G1 X52.500 Y42.344 F780.000 E2.48182
G1 X67.701 Y68.673 E2.48182
G1 X37.397 Y68.673 E2.47380
G1 X37.800 Y68.252 F12000.000
G1 F18000.000 E-3.10000
G1 X55.932 Y41.671 F12000.000
G1 F18000.000 E3.10000
G1 X84.068 Y41.671 F780.000 E2.29674
G1 X70.000 Y66.037 E2.29674
G1 X55.982 Y41.756 E2.28872
G1 X54.799 Y41.016 F12000.000
G1 X85.201 Y41.016 F780.000 E2.48182
G1 X70.000 Y67.345 E2.48182
G1 X54.848 Y41.101 E2.47380
G1 X55.414 Y41.240 F12000.000
G1 F18000.000 E-3.10000
G1 X101.568 Y68.018 F12000.000
G1 F18000.000 E3.10000
G1 X73.432 Y68.018 F780.000 E2.29674
G1 X87.500 Y43.653 E2.29674
G1 X101.518 Y67.933 E2.28872
G1 X102.701 Y68.673 F12000.000
G1 X72.299 Y68.673 F780.000 E2.48182
G1 X87.500 Y42.344 E2.48182
G1 X102.652 Y68.588 E2.47380
G1 X102.086 Y68.449 F12000.000
G1 F18000.000 E-3.10000
G1 X87.500 Y96.347 F12000.000
G1 F18000.000 E3.10000
G1 X73.432 Y71.982 F780.000 E2.29674
G1 X101.568 Y71.982 E2.29674
G1 X87.549 Y96.262 E2.28872
G1 X87.192 Y97.123 F12000.000
G1 X72.299 Y71.327 F780.000 E2.43155
G1 X102.701 Y71.327 E2.48182
G1 X87.500 Y97.656 E2.48182
G1 X87.241 Y97.208 E0.04225
G1 X87.519 Y96.556 F12000.000
G1 F18000.000 E-3.10000
G1 X70.000 Y74.912 F12000.000
G1 F18000.000 E3.10000
G1 X69.660 Y75.501 F1200.000 E0.05559
G1 X71.268 Y77.108 E0.18603
G1 X72.535 Y79.304 E0.20746
G1 X69.321 Y76.089 E0.37203
G1 X68.981 Y76.677 E0.05559
G1 X73.803 Y81.499 E0.55803
G1 X75.070 Y83.694 E0.20746
G1 X68.641 Y77.265 E0.74403
G1 X68.302 Y77.854 E0.05559
G1 X76.338 Y85.890 E0.93003
G1 X77.605 Y88.085 E0.20746
G1 X67.962 Y78.442 E1.11603
G1 X67.623 Y79.030 E0.05559
G1 X78.873 Y90.281 E1.30203
G1 X80.140 Y92.476 E0.20746
G1 X67.283 Y79.618 E1.48803
G1 X66.943 Y80.207 E0.05559
G1 X81.408 Y94.671 E1.67403
G1 X82.675 Y96.867 E0.20746
G1 X66.604 Y80.795 E1.86003
G1 X66.264 Y81.383 E0.05559
G1 X82.735 Y97.855 E1.90628
G1 X81.808 Y97.855 E0.07593
G1 X65.924 Y81.972 E1.83820
G1 X65.585 Y82.560 E0.05559
G1 X80.880 Y97.855 E1.77012
G1 X79.952 Y97.855 E0.07593
G1 X65.245 Y83.148 E1.70204
G1 X64.905 Y83.736 E0.05559
G1 X79.024 Y97.855 E1.63396
G1 X78.096 Y97.855 E0.07593
G1 X64.566 Y84.325 E1.56588
G1 X64.226 Y84.913 E0.05559
G1 X77.168 Y97.855 E1.49780
G1 X76.240 Y97.855 E0.07593
G1 X63.887 Y85.501 E1.42971
G1 X63.547 Y86.089 E0.05559
G1 X75.312 Y97.855 E1.36163
G1 X74.384 Y97.855 E0.07593
G1 X63.207 Y86.678 E1.29355
G1 X62.868 Y87.266 E0.05559
G1 X73.457 Y97.855 E1.22547
G1 X72.529 Y97.855 E0.07593
G1 X62.528 Y87.854 E1.15739
G1 X62.188 Y88.442 E0.05559
G1 X71.601 Y97.855 E1.08931
G1 X70.673 Y97.855 E0.07593
G1 X61.849 Y89.031 E1.02123
G1 X61.509 Y89.619 E0.05559
G1 X69.745 Y97.855 E0.95315
G1 X68.817 Y97.855 E0.07593
G1 X61.169 Y90.207 E0.88507
G1 X60.830 Y90.795 E0.05559
G1 X67.889 Y97.855 E0.81699
G1 X66.961 Y97.855 E0.07593
G1 X60.490 Y91.384 E0.74891
G1 X60.151 Y91.972 E0.05559
G1 X66.033 Y97.855 E0.68083
G1 X65.105 Y97.855 E0.07593
G1 X59.811 Y92.560 E0.61275
G1 X59.471 Y93.148 E0.05559
G1 X64.178 Y97.855 E0.54467
G1 X63.250 Y97.855 E0.07593
G1 X59.132 Y93.737 E0.47658
G1 X58.792 Y94.325 E0.05559
G1 X62.322 Y97.855 E0.40850
G1 X61.394 Y97.855 E0.07593
G1 X58.452 Y94.913 E0.34042
G1 X58.113 Y95.502 E0.05559
G1 X60.466 Y97.855 E0.27234
G1 X59.538 Y97.855 E0.07593
G1 X57.773 Y96.090 E0.20426
G1 X57.434 Y96.678 E0.05559
G1 X58.610 Y97.855 E0.13618
G1 X57.682 Y97.855 E0.07593
G1 X57.094 Y97.266 E0.06810
G1 X56.754 Y97.855 E0.05559
G1 F18000.000 E-3.10000
G1 X52.500 Y96.707 F12000.000
G1 F18000.000 E3.10000
G1 X52.842 Y96.114 F1200.000 E0.05648
G1 X51.222 Y94.494 E0.18904
G1 X53.185 Y95.521 E0.18276
G1 X49.944 Y92.281 E0.37805
G1 X48.667 Y90.068 E0.21081
G1 X53.527 Y94.928 E0.56705
G1 X53.870 Y94.336 E0.05649
G1 X47.389 Y87.855 E0.75606
G1 X46.111 Y85.642 E0.21081
G1 X54.212 Y93.743 E0.94506
G1 X54.554 Y93.150 E0.05649
G1 X44.833 Y83.429 E1.13406
G1 X43.556 Y81.216 E0.21081
G1 X54.897 Y92.557 E1.32307
G1 X55.239 Y91.964 E0.05649
G1 X42.278 Y79.003 E1.51207
G1 X41.000 Y76.789 E0.21081
G1 X55.581 Y91.371 E1.70107
G1 X55.924 Y90.778 E0.05649
G1 X39.723 Y74.576 E1.89008
G1 X38.445 Y72.363 E0.21081
G1 X56.266 Y90.185 E2.07908
G1 X56.608 Y89.592 E0.05649
G1 X38.819 Y71.802 E2.07542
G1 X39.754 Y71.802 E0.07716
G1 X56.951 Y88.999 E2.00624
G1 X57.293 Y88.406 E0.05649
G1 X40.689 Y71.802 E1.93706
G1 X41.625 Y71.802 E0.07716
G1 X57.636 Y87.813 E1.86788
G1 X57.978 Y87.220 E0.05649
G1 X42.560 Y71.802 E1.79870
G1 X43.495 Y71.802 E0.07716
G1 X58.320 Y86.627 E1.72952
G1 X58.663 Y86.034 E0.05649
G1 X44.431 Y71.802 E1.66034
G1 X45.366 Y71.802 E0.07716
G1 X59.005 Y85.441 E1.59116
G1 X59.347 Y84.848 E0.05649
G1 X46.301 Y71.802 E1.52198
G1 X47.237 Y71.802 E0.07716
G1 X59.690 Y84.255 E1.45280
G1 X60.032 Y83.662 E0.05649
G1 X48.172 Y71.802 E1.38362
G1 X49.107 Y71.802 E0.07716
G1 X60.374 Y83.069 E1.31444
G1 X60.717 Y82.476 E0.05649
G1 X50.043 Y71.802 E1.24526
G1 X50.978 Y71.802 E0.07716
G1 X61.059 Y81.883 E1.17608
G1 X61.402 Y81.290 E0.05649
G1 X51.914 Y71.802 E1.10690
G1 X52.849 Y71.802 E0.07716
G1 X61.744 Y80.697 E1.03772
G1 X62.086 Y80.104 E0.05649
G1 X53.784 Y71.802 E0.96854
G1 X54.720 Y71.802 E0.07716
G1 X62.429 Y79.511 E0.89936
G1 X62.771 Y78.918 E0.05649
G1 X55.655 Y71.802 E0.83018
G1 X56.590 Y71.802 E0.07716
G1 X63.113 Y78.325 E0.76100
G1 X63.456 Y77.732 E0.05649
G1 X57.526 Y71.802 E0.69182
G1 X58.461 Y71.802 E0.07716
G1 X63.798 Y77.139 E0.62264
G1 X64.140 Y76.546 E0.05649
G1 X59.396 Y71.802 E0.55346
G1 X60.332 Y71.802 E0.07716
G1 X64.483 Y75.953 E0.48428
G1 X64.825 Y75.360 E0.05649
G1 X61.267 Y71.802 E0.41510
G1 X62.202 Y71.802 E0.07716
G1 X65.168 Y74.767 E0.34592
G1 X65.510 Y74.174 E0.05649
G1 X63.138 Y71.802 E0.27674
G1 X64.073 Y71.802 E0.07716
G1 X65.852 Y73.581 E0.20756
G1 X66.195 Y72.988 E0.05649
G1 X65.009 Y71.802 E0.13838
G1 X65.944 Y71.802 E0.07716
G1 X66.537 Y72.395 E0.06920
G1 X66.879 Y71.802 E0.05649
G1 F18000.000 E-3.10000
G1 X39.254 Y67.544 F12000.000
G1 F18000.000 E3.10000
G1 X39.594 Y66.955 F1200.000 E0.05559
G1 X40.182 Y67.544 E0.06810
G1 X41.110 Y67.544 E0.07593
G1 X39.934 Y66.367 E0.13618
G1 X40.273 Y65.779 E0.05559
G1 X42.038 Y67.544 E0.20426
G1 X42.966 Y67.544 E0.07593
G1 X40.613 Y65.191 E0.27234
G1 X40.952 Y64.602 E0.05559
G1 X43.894 Y67.544 E0.34042
G1 X44.822 Y67.544 E0.07593
G1 X41.292 Y64.014 E0.40850
G1 X41.632 Y63.426 E0.05559
G1 X45.750 Y67.544 E0.47658
G1 X46.678 Y67.544 E0.07593
G1 X41.971 Y62.838 E0.54467
G1 X42.311 Y62.249 E0.05559
G1 X47.605 Y67.544 E0.61275
G1 X48.533 Y67.544 E0.07593
G1 X42.651 Y61.661 E0.68083
G1 X42.990 Y61.073 E0.05559
G1 X49.461 Y67.544 E0.74891
G1 X50.389 Y67.544 E0.07593
G1 X43.330 Y60.485 E0.81699
G1 X43.669 Y59.896 E0.05559
G1 X51.317 Y67.544 E0.88507
G1 X52.245 Y67.544 E0.07593
G1 X44.009 Y59.308 E0.95315
G1 X44.349 Y58.720 E0.05559
G1 X53.173 Y67.544 E1.02123
G1 X54.101 Y67.544 E0.07593
G1 X44.688 Y58.132 E1.08931
G1 X45.028 Y57.543 E0.05559
G1 X55.029 Y67.544 E1.15739
G1 X55.957 Y67.544 E0.07593
G1 X45.368 Y56.955 E1.22547
G1 X45.707 Y56.367 E0.05559
G1 X56.884 Y67.544 E1.29355
G1 X57.812 Y67.544 E0.07593
G1 X46.047 Y55.778 E1.36163
G1 X46.387 Y55.190 E0.05559
G1 X58.740 Y67.544 E1.42971
G1 X59.668 Y67.544 E0.07593
G1 X46.726 Y54.602 E1.49779
G1 X47.066 Y54.014 E0.05559
G1 X60.596 Y67.544 E1.56588
G1 X61.524 Y67.544 E0.07593
G1 X47.405 Y53.425 E1.63396
G1 X47.745 Y52.837 E0.05559
G1 X62.452 Y67.544 E1.70204
G1 X63.380 Y67.544 E0.07593
G1 X48.085 Y52.249 E1.77012
G1 X48.424 Y51.661 E0.05559
G1 X64.308 Y67.544 E1.83820
G1 X65.235 Y67.544 E0.07593
G1 X48.764 Y51.072 E1.90628
G1 X49.104 Y50.484 E0.05559
G1 X65.176 Y66.556 E1.86003
G1 X63.908 Y64.361 E0.20746
G1 X49.443 Y49.896 E1.67403
G1 X49.783 Y49.308 E0.05559
G1 X62.640 Y62.165 E1.48803
G1 X61.373 Y59.970 E0.20746
G1 X50.122 Y48.719 E1.30203
G1 X50.462 Y48.131 E0.05559
G1 X60.105 Y57.774 E1.11603
G1 X58.838 Y55.579 E0.20746
G1 X50.802 Y47.543 E0.93003
G1 X51.141 Y46.955 E0.05559
G1 X57.570 Y53.383 E0.74403
G1 X56.303 Y51.188 E0.20746
G1 X51.481 Y46.366 E0.55803
G1 X51.821 Y45.778 E0.05559
G1 X55.035 Y48.993 E0.37203
G1 X53.768 Y46.797 E0.20746
G1 X52.160 Y45.190 E0.18604
G1 X52.500 Y44.602 E0.05559
G1 F18000.000 E-3.10000
G1 X70.000 Y65.088 F12000.000
G1 F18000.000 E3.10000
G1 X70.340 Y64.499 F1200.000 E0.05559
G1 X68.732 Y62.892 E0.18604
G1 X70.679 Y63.911 E0.17985
G1 X67.465 Y60.696 E0.37204
G1 X66.197 Y58.501 E0.20746
G1 X71.019 Y63.323 E0.55804
G1 X71.359 Y62.735 E0.05559
G1 X64.930 Y56.306 E0.74404
G1 X63.662 Y54.110 E0.20746
G1 X71.698 Y62.146 E0.93004
G1 X72.038 Y61.558 E0.05559
G1 X62.395 Y51.915 E1.11604
G1 X61.127 Y49.719 E0.20746
G1 X72.377 Y60.970 E1.30204
G1 X72.717 Y60.382 E0.05559
G1 X59.860 Y47.524 E1.48804
G1 X58.592 Y45.328 E0.20746
G1 X73.057 Y59.793 E1.67404
G1 X73.396 Y59.205 E0.05559
G1 X57.324 Y43.133 E1.86004
G1 X57.265 Y42.145 E0.08098
G1 X73.736 Y58.617 E1.90628
G1 X74.076 Y58.028 E0.05559
G1 X58.192 Y42.145 E1.83820
G1 X59.120 Y42.145 E0.07593
G1 X74.415 Y57.440 E1.77012
G1 X74.755 Y56.852 E0.05559
G1 X60.048 Y42.145 E1.70203
G1 X60.976 Y42.145 E0.07593
G1 X75.095 Y56.264 E1.63395
G1 X75.434 Y55.675 E0.05559
G1 X61.904 Y42.145 E1.56587
G1 X62.832 Y42.145 E0.07593
G1 X75.774 Y55.087 E1.49779
G1 X76.113 Y54.499 E0.05559
G1 X63.760 Y42.145 E1.42971
G1 X64.688 Y42.145 E0.07593
G1 X76.453 Y53.911 E1.36163
G1 X76.793 Y53.322 E0.05559
G1 X65.616 Y42.145 E1.29355
G1 X66.543 Y42.145 E0.07593
G1 X77.132 Y52.734 E1.22547
G1 X77.472 Y52.146 E0.05559
G1 X67.471 Y42.145 E1.15739
G1 X68.399 Y42.145 E0.07593
G1 X77.812 Y51.558 E1.08931
G1 X78.151 Y50.969 E0.05559
G1 X69.327 Y42.145 E1.02123
G1 X70.255 Y42.145 E0.07593
G1 X78.491 Y50.381 E0.95315
G1 X78.831 Y49.793 E0.05559
G1 X71.183 Y42.145 E0.88507
G1 X72.111 Y42.145 E0.07593
G1 X79.170 Y49.205 E0.81699
G1 X79.510 Y48.616 E0.05559
G1 X73.039 Y42.145 E0.74891
G1 X73.967 Y42.145 E0.07593
G1 X79.849 Y48.028 E0.68082
G1 X80.189 Y47.440 E0.05559
G1 X74.895 Y42.145 E0.61274
G1 X75.822 Y42.145 E0.07593
G1 X80.529 Y46.851 E0.54466
G1 X80.868 Y46.263 E0.05559
G1 X76.750 Y42.145 E0.47658
G1 X77.678 Y42.145 E0.07593
G1 X81.208 Y45.675 E0.40850
G1 X81.548 Y45.087 E0.05559
G1 X78.606 Y42.145 E0.34042
G1 X79.534 Y42.145 E0.07593
G1 X81.887 Y44.498 E0.27234
G1 X82.227 Y43.910 E0.05559
G1 X80.462 Y42.145 E0.20426
G1 X81.390 Y42.145 E0.07593
G1 X82.566 Y43.322 E0.13618
G1 X82.906 Y42.734 E0.05559
G1 X82.318 Y42.145 E0.06810
G1 X83.246 Y42.145 E0.07595
G1 F18000.000 E-3.10000
G1 X87.500 Y44.602 F12000.000
G1 F18000.000 E3.10000
G1 X87.160 Y45.190 F1200.000 E0.05559
G1 X88.768 Y46.797 E0.18604
G1 X90.035 Y48.993 E0.20746
G1 X86.821 Y45.778 E0.37203
G1 X86.481 Y46.366 E0.05559
G1 X91.303 Y51.188 E0.55803
G1 X92.570 Y53.383 E0.20746
G1 X86.141 Y46.955 E0.74403
G1 X85.802 Y47.543 E0.05559
G1 X93.838 Y55.579 E0.93003
G1 X95.105 Y57.774 E0.20746
G1 X85.462 Y48.131 E1.11603
G1 X85.123 Y48.719 E0.05559
G1 X96.373 Y59.970 E1.30203
G1 X97.640 Y62.165 E0.20746
G1 X84.783 Y49.308 E1.48803
G1 X84.443 Y49.896 E0.05559
G1 X98.908 Y64.361 E1.67403
G1 X100.175 Y66.556 E0.20746
G1 X84.104 Y50.484 E1.86003
G1 X83.764 Y51.072 E0.05559
G1 X100.235 Y67.544 E1.90628
G1 X99.308 Y67.544 E0.07593
G1 X83.424 Y51.661 E1.83820
G1 X83.085 Y52.249 E0.05559
G1 X98.380 Y67.544 E1.77012
G1 X97.452 Y67.544 E0.07593
G1 X82.745 Y52.837 E1.70204
G1 X82.405 Y53.425 E0.05559
G1 X96.524 Y67.544 E1.63396
G1 X95.596 Y67.544 E0.07593
G1 X82.066 Y54.014 E1.56588
G1 X81.726 Y54.602 E0.05559
G1 X94.668 Y67.544 E1.49780
G1 X93.740 Y67.544 E0.07593
G1 X81.387 Y55.190 E1.42971
G1 X81.047 Y55.778 E0.05559
G1 X92.812 Y67.544 E1.36163
G1 X91.884 Y67.544 E0.07593
G1 X80.707 Y56.367 E1.29355
G1 X80.368 Y56.955 E0.05559
G1 X90.957 Y67.544 E1.22547
G1 X90.029 Y67.544 E0.07593
G1 X80.028 Y57.543 E1.15739
G1 X79.688 Y58.132 E0.05559
G1 X89.101 Y67.544 E1.08931
G1 X88.173 Y67.544 E0.07593
G1 X79.349 Y58.720 E1.02123
G1 X79.009 Y59.308 E0.05559
G1 X87.245 Y67.544 E0.95315
G1 X86.317 Y67.544 E0.07593
G1 X78.669 Y59.896 E0.88507
G1 X78.330 Y60.485 E0.05559
G1 X85.389 Y67.544 E0.81699
G1 X84.461 Y67.544 E0.07593
G1 X77.990 Y61.073 E0.74891
G1 X77.651 Y61.661 E0.05559
G1 X83.533 Y67.544 E0.68083
G1 X82.605 Y67.544 E0.07593
G1 X77.311 Y62.249 E0.61275
G1 X76.971 Y62.838 E0.05559
G1 X81.678 Y67.544 E0.54467
G1 X80.750 Y67.544 E0.07593
G1 X76.632 Y63.426 E0.47658
G1 X76.292 Y64.014 E0.05559
G1 X79.822 Y67.544 E0.40850
G1 X78.894 Y67.544 E0.07593
G1 X75.952 Y64.602 E0.34042
G1 X75.613 Y65.191 E0.05559
G1 X77.966 Y67.544 E0.27234
G1 X77.038 Y67.544 E0.07593
G1 X75.273 Y65.779 E0.20426
G1 X74.934 Y66.367 E0.05559
G1 X76.110 Y67.544 E0.13618
G1 X75.182 Y67.544 E0.07593
G1 X74.594 Y66.955 E0.06810
G1 X74.254 Y67.544 E0.05559
G1 F18000.000 E-3.10000
G1 X100.746 Y72.456 F12000.000
G1 F18000.000 E3.10000
G1 X99.818 Y72.456 F1200.000 E0.07595
G1 X100.406 Y73.045 E0.06810
G1 X100.066 Y73.633 E0.05559
G1 X98.890 Y72.456 E0.13618
G1 X97.962 Y72.456 E0.07593
G1 X99.727 Y74.221 E0.20426
